<?xml version="1.0" encoding="UTF-8"?>
<map version="1.8" tiledversion="1.8.2" orientation="orthogonal" renderorder="right-down" width="45" height="45" tilewidth="32" tileheight="32" infinite="0" nextlayerid="14" nextobjectid="48">
 <properties>
  <property name="id" type="int" value="0"/>
 </properties>
 <tileset firstgid="1" source="tilesets/[Base]BaseChip_pipo.tsx"/>
 <tileset firstgid="1065" name="[A]Water_pipo" tilewidth="32" tileheight="32" tilecount="48" columns="8">
  <image source="../../../../../../../home/satoshi/Programming/Godot/prueba-lan/game/tilesets/tsi_agua.png" width="256" height="192"/>
 </tileset>
 <tileset firstgid="1113" name="Grass, Dirt, Flower" tilewidth="32" tileheight="32" tilecount="960" columns="16">
  <image source="../../../../../../../home/satoshi/Programming/Godot/prueba-lan/game/tilesets/tsi_cesped.png" width="512" height="1920"/>
  <wangsets>
   <wangset name="Césped y polvos" type="corner" tile="677">
    <wangcolor name="Hierba" color="#ff0000" tile="677" probability="1"/>
    <wangcolor name="Hierba oscura" color="#00ff00" tile="773" probability="1"/>
    <wangcolor name="Hierba clara" color="#0000ff" tile="869" probability="1"/>
    <wangcolor name="Polvo" color="#ff7700" tile="301" probability="1"/>
    <wangcolor name="Tierra" color="#00e9ff" tile="397" probability="1"/>
    <wangcolor name="Arena" color="#ff00d8" tile="493" probability="1"/>
    <wangcolor name="Grava" color="#ffff00" tile="589" probability="1"/>
    <wangcolor name="Flores" color="#a000ff" tile="685" probability="1"/>
    <wangcolor name="Hierba alta" color="#00ffa1" tile="781" probability="1"/>
    <wangcolor name="Hierba oscura 2" color="#ffa8a8" tile="581" probability="1"/>
    <wangtile tileid="5" wangid="0,1,0,4,0,1,0,1"/>
    <wangtile tileid="6" wangid="0,1,0,4,0,4,0,1"/>
    <wangtile tileid="7" wangid="0,1,0,1,0,4,0,1"/>
    <wangtile tileid="13" wangid="0,4,0,5,0,4,0,4"/>
    <wangtile tileid="14" wangid="0,4,0,5,0,5,0,4"/>
    <wangtile tileid="15" wangid="0,4,0,4,0,5,0,4"/>
    <wangtile tileid="21" wangid="0,4,0,4,0,1,0,1"/>
    <wangtile tileid="22" wangid="0,4,0,4,0,4,0,4"/>
    <wangtile tileid="23" wangid="0,1,0,1,0,4,0,4"/>
    <wangtile tileid="29" wangid="0,5,0,5,0,4,0,4"/>
    <wangtile tileid="30" wangid="0,5,0,5,0,5,0,5"/>
    <wangtile tileid="31" wangid="0,4,0,4,0,5,0,5"/>
    <wangtile tileid="37" wangid="0,4,0,1,0,1,0,1"/>
    <wangtile tileid="38" wangid="0,4,0,1,0,1,0,4"/>
    <wangtile tileid="39" wangid="0,1,0,1,0,1,0,4"/>
    <wangtile tileid="45" wangid="0,5,0,4,0,4,0,4"/>
    <wangtile tileid="46" wangid="0,5,0,4,0,4,0,5"/>
    <wangtile tileid="47" wangid="0,4,0,4,0,4,0,5"/>
    <wangtile tileid="52" wangid="0,4,0,1,0,4,0,4"/>
    <wangtile tileid="53" wangid="0,4,0,4,0,1,0,4"/>
    <wangtile tileid="60" wangid="0,5,0,4,0,5,0,5"/>
    <wangtile tileid="61" wangid="0,5,0,5,0,4,0,5"/>
    <wangtile tileid="68" wangid="0,1,0,4,0,4,0,4"/>
    <wangtile tileid="69" wangid="0,4,0,4,0,4,0,1"/>
    <wangtile tileid="76" wangid="0,4,0,5,0,5,0,5"/>
    <wangtile tileid="77" wangid="0,5,0,5,0,5,0,4"/>
    <wangtile tileid="101" wangid="0,1,0,5,0,1,0,1"/>
    <wangtile tileid="102" wangid="0,1,0,5,0,5,0,1"/>
    <wangtile tileid="103" wangid="0,1,0,1,0,5,0,1"/>
    <wangtile tileid="109" wangid="0,4,0,6,0,4,0,4"/>
    <wangtile tileid="110" wangid="0,4,0,6,0,6,0,4"/>
    <wangtile tileid="111" wangid="0,4,0,4,0,6,0,4"/>
    <wangtile tileid="117" wangid="0,5,0,5,0,1,0,1"/>
    <wangtile tileid="118" wangid="0,5,0,5,0,5,0,5"/>
    <wangtile tileid="119" wangid="0,1,0,1,0,5,0,5"/>
    <wangtile tileid="125" wangid="0,6,0,6,0,4,0,4"/>
    <wangtile tileid="126" wangid="0,6,0,6,0,6,0,6"/>
    <wangtile tileid="127" wangid="0,4,0,4,0,6,0,6"/>
    <wangtile tileid="133" wangid="0,5,0,1,0,1,0,1"/>
    <wangtile tileid="134" wangid="0,5,0,1,0,1,0,5"/>
    <wangtile tileid="135" wangid="0,1,0,1,0,1,0,5"/>
    <wangtile tileid="141" wangid="0,6,0,4,0,4,0,4"/>
    <wangtile tileid="142" wangid="0,6,0,4,0,4,0,6"/>
    <wangtile tileid="143" wangid="0,4,0,4,0,4,0,6"/>
    <wangtile tileid="148" wangid="0,5,0,1,0,5,0,5"/>
    <wangtile tileid="149" wangid="0,5,0,5,0,1,0,5"/>
    <wangtile tileid="156" wangid="0,6,0,4,0,6,0,6"/>
    <wangtile tileid="157" wangid="0,6,0,6,0,4,0,6"/>
    <wangtile tileid="164" wangid="0,1,0,5,0,5,0,5"/>
    <wangtile tileid="165" wangid="0,5,0,5,0,5,0,1"/>
    <wangtile tileid="172" wangid="0,4,0,6,0,6,0,6"/>
    <wangtile tileid="173" wangid="0,6,0,6,0,6,0,4"/>
    <wangtile tileid="197" wangid="0,1,0,6,0,1,0,1"/>
    <wangtile tileid="198" wangid="0,1,0,6,0,6,0,1"/>
    <wangtile tileid="199" wangid="0,1,0,1,0,6,0,1"/>
    <wangtile tileid="205" wangid="0,4,0,7,0,4,0,4"/>
    <wangtile tileid="206" wangid="0,4,0,7,0,7,0,4"/>
    <wangtile tileid="207" wangid="0,4,0,4,0,7,0,4"/>
    <wangtile tileid="213" wangid="0,6,0,6,0,1,0,1"/>
    <wangtile tileid="214" wangid="0,6,0,6,0,6,0,6"/>
    <wangtile tileid="215" wangid="0,1,0,1,0,6,0,6"/>
    <wangtile tileid="221" wangid="0,7,0,7,0,4,0,4"/>
    <wangtile tileid="222" wangid="0,7,0,7,0,7,0,7"/>
    <wangtile tileid="223" wangid="0,4,0,4,0,7,0,7"/>
    <wangtile tileid="229" wangid="0,6,0,1,0,1,0,1"/>
    <wangtile tileid="230" wangid="0,6,0,1,0,1,0,6"/>
    <wangtile tileid="231" wangid="0,1,0,1,0,1,0,6"/>
    <wangtile tileid="237" wangid="0,7,0,4,0,4,0,4"/>
    <wangtile tileid="238" wangid="0,7,0,4,0,4,0,7"/>
    <wangtile tileid="239" wangid="0,4,0,4,0,4,0,7"/>
    <wangtile tileid="244" wangid="0,6,0,1,0,6,0,6"/>
    <wangtile tileid="245" wangid="0,6,0,6,0,1,0,6"/>
    <wangtile tileid="252" wangid="0,7,0,4,0,7,0,7"/>
    <wangtile tileid="253" wangid="0,7,0,7,0,4,0,7"/>
    <wangtile tileid="260" wangid="0,1,0,6,0,6,0,6"/>
    <wangtile tileid="261" wangid="0,6,0,6,0,6,0,1"/>
    <wangtile tileid="268" wangid="0,4,0,7,0,7,0,7"/>
    <wangtile tileid="269" wangid="0,7,0,7,0,7,0,4"/>
    <wangtile tileid="293" wangid="0,1,0,7,0,1,0,1"/>
    <wangtile tileid="294" wangid="0,1,0,7,0,7,0,1"/>
    <wangtile tileid="295" wangid="0,1,0,1,0,7,0,1"/>
    <wangtile tileid="301" wangid="0,0,0,4,0,0,0,0"/>
    <wangtile tileid="302" wangid="0,0,0,4,0,4,0,0"/>
    <wangtile tileid="303" wangid="0,0,0,0,0,4,0,0"/>
    <wangtile tileid="309" wangid="0,7,0,7,0,1,0,1"/>
    <wangtile tileid="310" wangid="0,7,0,7,0,7,0,7"/>
    <wangtile tileid="311" wangid="0,1,0,1,0,7,0,7"/>
    <wangtile tileid="317" wangid="0,4,0,4,0,0,0,0"/>
    <wangtile tileid="318" wangid="0,4,0,4,0,4,0,4"/>
    <wangtile tileid="319" wangid="0,0,0,0,0,4,0,4"/>
    <wangtile tileid="325" wangid="0,7,0,1,0,1,0,1"/>
    <wangtile tileid="326" wangid="0,7,0,1,0,1,0,7"/>
    <wangtile tileid="327" wangid="0,1,0,1,0,1,0,7"/>
    <wangtile tileid="333" wangid="0,4,0,0,0,0,0,0"/>
    <wangtile tileid="334" wangid="0,4,0,0,0,0,0,4"/>
    <wangtile tileid="335" wangid="0,0,0,0,0,0,0,4"/>
    <wangtile tileid="340" wangid="0,7,0,1,0,7,0,7"/>
    <wangtile tileid="341" wangid="0,7,0,7,0,1,0,7"/>
    <wangtile tileid="348" wangid="0,4,0,0,0,4,0,4"/>
    <wangtile tileid="349" wangid="0,4,0,4,0,0,0,4"/>
    <wangtile tileid="356" wangid="0,1,0,7,0,7,0,7"/>
    <wangtile tileid="357" wangid="0,7,0,7,0,7,0,1"/>
    <wangtile tileid="364" wangid="0,0,0,4,0,4,0,4"/>
    <wangtile tileid="365" wangid="0,4,0,4,0,4,0,0"/>
    <wangtile tileid="389" wangid="0,1,0,2,0,1,0,1"/>
    <wangtile tileid="390" wangid="0,1,0,2,0,2,0,1"/>
    <wangtile tileid="391" wangid="0,1,0,1,0,2,0,1"/>
    <wangtile tileid="397" wangid="0,0,0,5,0,0,0,0"/>
    <wangtile tileid="398" wangid="0,0,0,5,0,5,0,0"/>
    <wangtile tileid="399" wangid="0,0,0,0,0,5,0,0"/>
    <wangtile tileid="405" wangid="0,2,0,2,0,1,0,1"/>
    <wangtile tileid="406" wangid="0,2,0,2,0,2,0,2"/>
    <wangtile tileid="407" wangid="0,1,0,1,0,2,0,2"/>
    <wangtile tileid="413" wangid="0,5,0,5,0,0,0,0"/>
    <wangtile tileid="414" wangid="0,5,0,5,0,5,0,5"/>
    <wangtile tileid="415" wangid="0,0,0,0,0,5,0,5"/>
    <wangtile tileid="421" wangid="0,2,0,1,0,1,0,1"/>
    <wangtile tileid="422" wangid="0,2,0,1,0,1,0,2"/>
    <wangtile tileid="423" wangid="0,1,0,1,0,1,0,2"/>
    <wangtile tileid="429" wangid="0,5,0,0,0,0,0,0"/>
    <wangtile tileid="430" wangid="0,5,0,0,0,0,0,5"/>
    <wangtile tileid="431" wangid="0,0,0,0,0,0,0,5"/>
    <wangtile tileid="436" wangid="0,2,0,1,0,2,0,2"/>
    <wangtile tileid="437" wangid="0,2,0,2,0,1,0,2"/>
    <wangtile tileid="444" wangid="0,5,0,0,0,5,0,5"/>
    <wangtile tileid="445" wangid="0,5,0,5,0,0,0,5"/>
    <wangtile tileid="452" wangid="0,1,0,2,0,2,0,2"/>
    <wangtile tileid="453" wangid="0,2,0,2,0,2,0,1"/>
    <wangtile tileid="460" wangid="0,0,0,5,0,5,0,5"/>
    <wangtile tileid="461" wangid="0,5,0,5,0,5,0,0"/>
    <wangtile tileid="485" wangid="0,1,0,3,0,1,0,1"/>
    <wangtile tileid="486" wangid="0,1,0,3,0,3,0,1"/>
    <wangtile tileid="487" wangid="0,1,0,1,0,3,0,1"/>
    <wangtile tileid="493" wangid="0,0,0,6,0,0,0,0"/>
    <wangtile tileid="494" wangid="0,0,0,6,0,6,0,0"/>
    <wangtile tileid="495" wangid="0,0,0,0,0,6,0,0"/>
    <wangtile tileid="501" wangid="0,3,0,3,0,1,0,1"/>
    <wangtile tileid="502" wangid="0,3,0,3,0,3,0,3"/>
    <wangtile tileid="503" wangid="0,1,0,1,0,3,0,3"/>
    <wangtile tileid="509" wangid="0,6,0,6,0,0,0,0"/>
    <wangtile tileid="510" wangid="0,6,0,6,0,6,0,6"/>
    <wangtile tileid="511" wangid="0,0,0,0,0,6,0,6"/>
    <wangtile tileid="517" wangid="0,3,0,1,0,1,0,1"/>
    <wangtile tileid="518" wangid="0,3,0,1,0,1,0,3"/>
    <wangtile tileid="519" wangid="0,1,0,1,0,1,0,3"/>
    <wangtile tileid="525" wangid="0,6,0,0,0,0,0,0"/>
    <wangtile tileid="526" wangid="0,6,0,0,0,0,0,6"/>
    <wangtile tileid="527" wangid="0,0,0,0,0,0,0,6"/>
    <wangtile tileid="532" wangid="0,3,0,1,0,3,0,3"/>
    <wangtile tileid="533" wangid="0,3,0,3,0,1,0,3"/>
    <wangtile tileid="540" wangid="0,6,0,0,0,6,0,6"/>
    <wangtile tileid="541" wangid="0,6,0,6,0,0,0,6"/>
    <wangtile tileid="548" wangid="0,1,0,3,0,3,0,3"/>
    <wangtile tileid="549" wangid="0,3,0,3,0,3,0,1"/>
    <wangtile tileid="556" wangid="0,0,0,6,0,6,0,6"/>
    <wangtile tileid="557" wangid="0,6,0,6,0,6,0,0"/>
    <wangtile tileid="581" wangid="0,1,0,10,0,1,0,1"/>
    <wangtile tileid="582" wangid="0,1,0,10,0,10,0,1"/>
    <wangtile tileid="583" wangid="0,1,0,1,0,10,0,1"/>
    <wangtile tileid="589" wangid="0,0,0,7,0,0,0,0"/>
    <wangtile tileid="590" wangid="0,0,0,7,0,7,0,0"/>
    <wangtile tileid="591" wangid="0,0,0,0,0,7,0,0"/>
    <wangtile tileid="597" wangid="0,10,0,10,0,1,0,1"/>
    <wangtile tileid="598" wangid="0,10,0,10,0,10,0,10"/>
    <wangtile tileid="599" wangid="0,1,0,1,0,10,0,10"/>
    <wangtile tileid="605" wangid="0,7,0,7,0,0,0,0"/>
    <wangtile tileid="606" wangid="0,7,0,7,0,7,0,7"/>
    <wangtile tileid="607" wangid="0,0,0,0,0,7,0,7"/>
    <wangtile tileid="613" wangid="0,10,0,1,0,1,0,1"/>
    <wangtile tileid="614" wangid="0,10,0,1,0,1,0,10"/>
    <wangtile tileid="615" wangid="0,1,0,1,0,1,0,10"/>
    <wangtile tileid="621" wangid="0,7,0,0,0,0,0,0"/>
    <wangtile tileid="622" wangid="0,7,0,0,0,0,0,7"/>
    <wangtile tileid="623" wangid="0,0,0,0,0,0,0,7"/>
    <wangtile tileid="628" wangid="0,10,0,1,0,10,0,10"/>
    <wangtile tileid="629" wangid="0,10,0,10,0,1,0,10"/>
    <wangtile tileid="636" wangid="0,7,0,0,0,7,0,7"/>
    <wangtile tileid="637" wangid="0,7,0,7,0,0,0,7"/>
    <wangtile tileid="644" wangid="0,1,0,10,0,10,0,10"/>
    <wangtile tileid="645" wangid="0,10,0,10,0,10,0,1"/>
    <wangtile tileid="652" wangid="0,0,0,7,0,7,0,7"/>
    <wangtile tileid="653" wangid="0,7,0,7,0,7,0,0"/>
    <wangtile tileid="677" wangid="0,0,0,1,0,0,0,0"/>
    <wangtile tileid="678" wangid="0,0,0,1,0,1,0,0"/>
    <wangtile tileid="679" wangid="0,0,0,0,0,1,0,0"/>
    <wangtile tileid="685" wangid="0,0,0,8,0,0,0,0"/>
    <wangtile tileid="686" wangid="0,0,0,8,0,8,0,0"/>
    <wangtile tileid="687" wangid="0,0,0,0,0,8,0,0"/>
    <wangtile tileid="693" wangid="0,1,0,1,0,0,0,0"/>
    <wangtile tileid="694" wangid="0,1,0,1,0,1,0,1"/>
    <wangtile tileid="695" wangid="0,0,0,0,0,1,0,1"/>
    <wangtile tileid="701" wangid="0,8,0,8,0,0,0,0"/>
    <wangtile tileid="702" wangid="0,8,0,8,0,8,0,8"/>
    <wangtile tileid="703" wangid="0,0,0,0,0,8,0,8"/>
    <wangtile tileid="709" wangid="0,1,0,0,0,0,0,0"/>
    <wangtile tileid="710" wangid="0,1,0,0,0,0,0,1"/>
    <wangtile tileid="711" wangid="0,0,0,0,0,0,0,1"/>
    <wangtile tileid="717" wangid="0,8,0,0,0,0,0,0"/>
    <wangtile tileid="718" wangid="0,8,0,0,0,0,0,8"/>
    <wangtile tileid="719" wangid="0,0,0,0,0,0,0,8"/>
    <wangtile tileid="724" wangid="0,1,0,0,0,1,0,1"/>
    <wangtile tileid="725" wangid="0,1,0,1,0,0,0,1"/>
    <wangtile tileid="732" wangid="0,8,0,0,0,8,0,8"/>
    <wangtile tileid="733" wangid="0,8,0,8,0,0,0,8"/>
    <wangtile tileid="740" wangid="0,0,0,1,0,1,0,1"/>
    <wangtile tileid="741" wangid="0,1,0,1,0,1,0,0"/>
    <wangtile tileid="748" wangid="0,0,0,8,0,8,0,8"/>
    <wangtile tileid="749" wangid="0,8,0,8,0,8,0,0"/>
    <wangtile tileid="773" wangid="0,0,0,2,0,0,0,0"/>
    <wangtile tileid="774" wangid="0,0,0,2,0,2,0,0"/>
    <wangtile tileid="775" wangid="0,0,0,0,0,2,0,0"/>
    <wangtile tileid="781" wangid="0,0,0,9,0,0,0,0"/>
    <wangtile tileid="782" wangid="0,0,0,9,0,9,0,0"/>
    <wangtile tileid="783" wangid="0,0,0,0,0,9,0,0"/>
    <wangtile tileid="789" wangid="0,2,0,2,0,0,0,0"/>
    <wangtile tileid="790" wangid="0,2,0,2,0,2,0,2"/>
    <wangtile tileid="791" wangid="0,0,0,0,0,2,0,2"/>
    <wangtile tileid="797" wangid="0,9,0,9,0,0,0,0"/>
    <wangtile tileid="798" wangid="0,9,0,9,0,9,0,9"/>
    <wangtile tileid="799" wangid="0,0,0,0,0,9,0,9"/>
    <wangtile tileid="805" wangid="0,2,0,0,0,0,0,0"/>
    <wangtile tileid="806" wangid="0,2,0,0,0,0,0,2"/>
    <wangtile tileid="807" wangid="0,0,0,0,0,0,0,2"/>
    <wangtile tileid="813" wangid="0,9,0,0,0,0,0,0"/>
    <wangtile tileid="814" wangid="0,9,0,0,0,0,0,9"/>
    <wangtile tileid="815" wangid="0,0,0,0,0,0,0,9"/>
    <wangtile tileid="820" wangid="0,2,0,0,0,2,0,2"/>
    <wangtile tileid="821" wangid="0,2,0,2,0,0,0,2"/>
    <wangtile tileid="828" wangid="0,9,0,0,0,9,0,9"/>
    <wangtile tileid="829" wangid="0,9,0,9,0,0,0,9"/>
    <wangtile tileid="836" wangid="0,0,0,2,0,2,0,2"/>
    <wangtile tileid="837" wangid="0,2,0,2,0,2,0,0"/>
    <wangtile tileid="844" wangid="0,0,0,9,0,9,0,9"/>
    <wangtile tileid="845" wangid="0,9,0,9,0,9,0,0"/>
    <wangtile tileid="869" wangid="0,0,0,3,0,0,0,0"/>
    <wangtile tileid="870" wangid="0,0,0,3,0,3,0,0"/>
    <wangtile tileid="871" wangid="0,0,0,0,0,3,0,0"/>
    <wangtile tileid="885" wangid="0,3,0,3,0,0,0,0"/>
    <wangtile tileid="886" wangid="0,3,0,3,0,3,0,3"/>
    <wangtile tileid="887" wangid="0,0,0,0,0,3,0,3"/>
    <wangtile tileid="901" wangid="0,3,0,0,0,0,0,0"/>
    <wangtile tileid="902" wangid="0,3,0,0,0,0,0,3"/>
    <wangtile tileid="903" wangid="0,0,0,0,0,0,0,3"/>
    <wangtile tileid="916" wangid="0,3,0,0,0,3,0,3"/>
    <wangtile tileid="917" wangid="0,3,0,3,0,0,0,3"/>
    <wangtile tileid="932" wangid="0,0,0,3,0,3,0,3"/>
    <wangtile tileid="933" wangid="0,3,0,3,0,3,0,0"/>
   </wangset>
  </wangsets>
 </tileset>
 <tileset firstgid="2073" name="tsi_BasePipo1" tilewidth="32" tileheight="32" tilecount="528" columns="8">
  <image source="tilesets/tsi_BasePipo1.png" width="256" height="2112"/>
 </tileset>
 <tileset firstgid="2601" name="tsi_BasePipo2" tilewidth="32" tileheight="32" tilecount="536" columns="8">
  <image source="tilesets/tsi_BasePipo2.png" width="256" height="2144"/>
 </tileset>
 <layer id="1" name="Suelo" width="45" height="45">
  <data encoding="csv">
1,1,1,1,1,1,1,1,1,1,1,1,1,1,1,1,1,1,1,1,1,1,1,1,1,1,1,1,1,1,1,1,1,1,1,1,1,1,1,310,1,1,1,1,1,
1,1,1,1,1,1,1,1,1,1,1,1,1,1,1,1,1,1,1,1,1,1,1,1,1,1,1,1,1,1,1,1,1,1,1,1,1,1,1,310,1,1,1,1,1,
1,1,1,1,1,1,1,1,1,1,1,1,1,1,1,1,1,1,1,1,1,1,1,1,1,1,1,1,1,1,1,1,1,1,1,1,1,1,1,1,1,1,1,1,1,
1,1,1,1,1,1,1,1,1,1,1,1,1,1,1,1,1,1,1,1,1,1,1,1,1,1,1,1,1,1,1,1,1,1,1,1,1,1,1,1,1,1,1,1,1,
1,1,1,1,1,1,1,1,1,1,1,1,1,1,1,1,1,1,1,1,1,1,1,1,1,1,1,1,1,1,1,1,1,1,1,1,1,1,1,1,1,1,1,1,1,
1,1,1,1,1,1,1,1,1,1,1,1,1,1,1,1,1,1,1,1,1,1,1,1,1,1,1,1,1,1,1,1,1,1,1,1,1,1,1,1,1,1,1,1,1,
1,1,1,1,1,1,1,1,1,1,1,1,1,1,1,1,1,1,1,1,1,1,1,1,1,1,1,1,1,1,1,1,1,1,1,1,1,1,1,1,1,1,1,1,1,
1,1,1,1,1,1,1,1,1,1,1,1,1,1,1,1,1,1,1,1,1,1,1,1,1,1,1,1,1,1,1,1,1,1,1,1,1,1,1,1,1,1,1,1,1,
1,1,1,1,1,1,1,1,1,1,1,1,1,1,1,1,1,1,1,1,1,1,1,1,1,1,1,1,1,1,1,1,1,1,1,1,1,1,1,1,1,1,1,1,1,
1,1,1,1,1,1,1,1,1,1,1,1,1,1,1,1,1,1,1,1,1,1,1,1,1,1,1,1,1,1,1,1,1,1,1,1,1,1,1,1,1,1,1,1,1,
1,1,1,1,1,1,1,1,1,1,1,1,1,1,1,1,1,1,1,1,1,1,1,1,1,1,1,1,1,1,1,1,1,1,1,1,1,1,1,1,1,1,1,1,1,
1,1,1,1,1,1,1,1,1,1,1,1,1,1,1,1,1,1,1,1,1,1,1,1,1,1,1,1,1,1,1,1,1,1,1,1,1,1,1,1,1,1,1,1,1,
1,1,1,1,1,1,1,1,1,1,1,1,1,1,1,1,1,1,1,1,1,1,1,1,1,1,1,1,1,1,1,1,1,1,1,1,1,1,1,1,1,1,1,1,1,
1,1,1,1,1,1,1,1,1,1,1,1,1,1,1,1,1,1,1,1,1,1,1,1,1,1,1,1,1,1,1,1,1,290,290,1,1,1,1,1,1,1,1,1,1,
1,1,1,1,1,1,1,1,1,1,1,1,1,1,1,1,1,1,1,1,1,1,1,1,1,1,1,1,1,1,1,1,1,290,290,1,1,1,1,1,1,1,1,1,1,
1,1,1,1,1,1,1,1,1,1,1,1,1,1,1,1,1,1,1,1,1,1,1,1,1,1,1,1,1,1,1,1,1,290,290,1,1,1,1,1,1,1,1,1,1,
1,1,1,1,1,1,1,1,1,1,1,1,1,1,1,1,1,1,1,1,1,1,1,1,1,1,1,1,1,1,1,1,1,290,290,1,1,1,1,1,1,1,1,1,1,
1,1,1,1,1,1,1,1,1,1,1,1,1,1,1,1,1,1,1,1,1,1,1,1,1,1,1,1,1,1,1,1,1,1,1,1,1,1,1,1,1,1,1,1,1,
1,1,1,1,1,1,1,1,1,1,1,1,1,1,1,1,1,1,1,1,1,1,1,1,1,1,1,1,1,1,1,1,1,1,1,1,1,1,1,1,1,1,1,1,1,
1,1,1,1,1,1,1,1,1,1,1,1,1,1,1,1,1,1,1,1,1,1,1,1,1,1,1,1,1,1,1,1,1,1,1,1,1,1,1,1,1,1,1,1,1,
1,1,1,1,1,1,1,1,1,1,1,1,1,1,1,1,1,1,1,1,1,1,1,1,1,1,1,1,1,1,1,1,1,1,1,1,1,1,1,1,1,1,1,1,1,
1,1,1,1,1,1,1,1,1,1,1,1,1,1,1,1,1,1,1,1,1,1,1,1,1,1,1,1,1,1,1,1,1,1,1,1,1,1,1,1,1,1,1,1,1,
1,1,1,1,1,1,1,1,1,1,1,1,1,1,1,1,1,1,1,1,1,1,1,1,1,1,1,1,1,1,1,1,1,1,1,1,1,1,1,1,1,1,1,1,1,
1,1,1,1,1,1,1,1,1,1,1,1,1,1,1,1,1,1,1,1,1,1,1,1,1,1,1,1,1,1,1,1,1,1,1,1,1,1,1,1,1,1,1,1,1,
1,1,1,1,1,1,1,1,1,1,1,1,1,1,1,1,1,1,1,1,1,1,1,1,1,1,1,1,1,1,1,1,1,1,1,1,1,1,1,1,1,1,1,1,1,
1,1,1,1,1,1,1,1,1,1,1,1,1,1,1,1,1,1,1,1,1,1,1,1,1,1,1,1,1,1,1,1,1,1,1,1,1,1,1,1,1,1,1,1,1,
1,1,1,1,1,1,1,1,1,1,1,1,1,1,1,1,1,1,1,1,1,1,1,1,1,1,1,1,1,1,1,1,1,1,1,1,1,1,1,1,1,1,1,1,1,
1,1,1,1,1,1,1,1,1,1,1,1,1,1,1,1,1,1,1,1,1,1,1,1,1,1,1,1,1,1,1,1,1,1,1,1,1,1,1,1,1,1,1,1,1,
1,1,1,1,1,1,1,1,1,1,1,1,1,1,1,1,1,1,1,1,1,1,1,1,1,1,1,1,1,1,1,1,1,1,1,1,1,1,1,1,1,1,1,1,1,
1,1,1,1,1,1,1,1,1,1,1,1,1,1,1,1,1,1,1,1,1,1,1,1,1,1,1,1,1,1,1,1,1,1,1,1,1,1,1,1,1,1,1,1,1,
1,1,1,1,1,1,1,1,1,1,1,1,1,1,1,1,1,1,1,1,1,1,1,1,1,1,1,1,1,1,1,1,1,1,1,1,1,1,1,1,1,1,1,1,1,
1,1,1,1,1,1,1,1,1,1,1,1,1,1,1,1,1,1,1,1,1,1,1,1,1,1,1,1,1,1,1,1,1,1,1,1,1,1,1,1,1,1,1,1,1,
1,1,1,1,1,1,1,1,1,1,1,1,1,1,1,1,1,1,1,1,1,1,1,1,1,1,1,1,1,1,1,1,1,1,1,1,1,1,1,1,1,1,1,1,1,
1,1,1,1,1,1,1,1,1,1,1,1,1,1,1,1,1,1,1,1,1,1,1,1,1,1,1,1,1,1,1,1,1,1,1,1,1,1,1,1,1,1,1,1,1,
1,1,1,1,1,1,1,1,1,1,1,1,1,1,1,1,1,1,1,1,1,1,1,1,1,1,1,1,1,1,1,1,1,1,1,1,1,1,1,1,1,1,1,1,1,
1,1,1,1,1,1,1,1,1,1,1,1,1,1,1,1,1,1,1,1,1,1,1,1,1,1,1,1,1,1,1,1,1,1,1,1,1,1,1,1,1,1,1,1,1,
1,1,1,1,1,315,315,315,315,315,315,315,315,315,1,1,1,1,1,1,1,1,1,1,1,1,1,1,1,1,1,1,1,1,1,1,1,1,1,1,1,1,1,1,1,
1,1,1,1,1,315,315,315,315,315,315,315,315,315,1,1,1,1,1,1,1,1,1,1,1,1,1,1,1,1,1,1,1,1,1,1,1,1,1,1,1,1,1,1,1,
1,1,1,1,1,315,315,315,315,315,315,315,315,315,1,1,1,1,1,1,1,1,1,1,1,1,1,1,1,1,1,1,1,1,1,1,1,1,1,1,1,1,1,1,1,
1,1,1,1,1,315,315,315,315,315,315,315,315,315,1,1,1,1,1,1,1,1,1,1,1,1,1,1,1,1,1,1,1,1,1,1,1,1,1,1,1,1,1,1,1,
1,1,1,1,1,315,315,315,315,315,315,315,315,315,1,1,1,1,1,1,1,1,1,1,1,1,1,1,1,1,1,1,1,1,1,1,1,1,1,1,1,1,1,1,1,
1,1,1,1,1,1,1,1,1,1,1,1,1,1,1,1,1,1,1,1,1,1,1,1,1,1,1,1,1,1,1,1,1,1,1,1,1,1,1,1,1,1,1,1,1,
1,1,1,1,1,1,1,1,1,1,1,1,1,1,1,1,1,1,1,1,1,1,1,1,1,1,1,1,1,1,1,1,1,1,1,1,1,1,1,1,1,1,1,1,1,
1,1,1,1,1,1,1,1,1,1,1,1,1,1,1,1,1,1,1,1,1,1,1,1,1,1,1,1,1,1,1,1,1,1,1,1,1,1,1,1,1,1,1,1,1,
1,1,1,1,1,1,1,1,1,1,1,1,1,1,1,1,1,1,1,1,1,1,1,1,1,1,1,1,1,1,1,1,1,1,1,1,1,1,1,1,1,1,1,1,1
</data>
 </layer>
 <layer id="2" name="Césped" width="45" height="45">
  <data encoding="csv">
0,0,0,0,0,0,0,0,0,0,0,0,0,0,0,0,0,0,0,0,0,0,0,0,0,0,0,0,0,0,0,0,0,0,0,0,0,0,0,0,0,0,0,0,0,
0,0,0,0,0,0,0,0,0,0,0,0,0,0,0,0,0,0,0,0,0,0,0,0,0,0,0,0,0,0,0,0,0,0,0,0,0,0,0,0,0,0,0,0,0,
0,0,0,0,0,0,0,0,0,0,0,0,0,0,0,0,0,0,0,0,0,0,0,0,0,0,0,0,0,0,0,0,490,490,490,490,0,0,0,0,0,0,0,0,0,
0,0,0,0,0,0,1790,1791,1791,1791,1791,1791,1791,1792,0,0,0,0,0,0,0,0,0,0,0,0,0,0,0,0,0,0,490,490,490,490,0,0,0,0,0,0,0,0,0,
0,0,0,0,0,1790,1854,1807,1807,1807,1807,1807,1807,1853,1791,1792,0,0,0,0,0,0,0,0,0,0,0,492,492,492,492,492,490,490,490,490,492,492,492,492,492,0,0,0,0,
0,0,0,0,0,1806,1807,1807,1807,1807,1807,1807,1807,1807,1807,1808,0,0,0,0,0,0,0,0,0,0,0,492,492,492,492,492,492,492,492,490,492,492,492,492,492,0,0,0,0,
0,0,0,0,0,1806,1807,1807,1807,1807,1807,1807,1807,1807,1807,1853,1792,0,0,0,0,0,0,0,0,0,0,490,490,490,492,492,492,490,492,492,492,492,492,492,492,0,0,0,0,
0,0,0,0,0,1806,1807,1807,1807,1807,1807,1807,1807,1807,1807,1807,1808,0,0,0,0,0,0,0,0,0,0,490,490,490,490,492,492,492,492,492,492,492,492,492,492,0,0,0,0,
0,0,0,0,0,1806,1807,1807,1807,1807,1807,1807,1807,1807,1807,1807,1808,0,0,0,0,0,0,0,0,0,0,0,0,0,0,492,492,492,492,492,492,0,0,0,0,0,0,0,0,
0,0,0,0,0,1806,1807,1807,1807,1807,1807,1807,1807,1807,1807,1807,1808,15,16,0,0,0,0,0,0,0,0,0,0,50,50,492,492,492,492,492,492,50,0,0,0,0,0,0,0,
0,0,0,0,0,1806,1807,1807,1807,1807,1807,1807,1807,1807,1807,1807,1808,23,24,0,0,0,0,0,0,0,0,52,0,56,56,490,490,490,490,490,490,50,54,54,53,0,0,0,0,
0,0,0,0,0,1806,1807,1807,1807,1807,1807,1807,1807,1807,1807,1807,1808,0,0,1033,1034,1035,1036,1037,0,0,0,52,0,0,56,490,490,487,487,490,490,0,0,0,53,0,0,0,0,
0,0,0,0,0,1822,1823,1838,1807,1807,1807,1807,1807,1807,1807,1807,1808,0,0,1041,1042,1043,1044,1045,0,0,0,54,50,50,0,0,0,495,495,0,0,53,0,50,0,0,0,0,0,
0,0,0,0,0,0,0,1822,1823,1823,1823,1823,1823,1823,1823,1823,1824,0,0,0,0,43,0,0,0,0,0,0,0,0,0,0,0,0,0,0,0,0,310,310,310,310,0,0,0,
0,0,0,0,0,0,0,0,0,0,0,0,0,0,0,0,0,0,0,0,0,0,0,0,0,0,0,0,0,0,0,0,0,0,0,0,0,0,310,310,310,310,0,0,0,
0,0,0,0,0,0,0,0,0,0,0,0,0,0,0,0,0,0,0,0,0,0,0,0,0,0,0,0,0,0,0,0,0,0,0,0,0,0,310,310,310,310,0,0,0,
0,0,0,0,0,0,0,0,0,0,0,0,0,0,0,0,0,0,0,0,0,0,0,0,0,0,0,0,0,0,0,0,0,0,0,0,0,0,0,0,0,0,0,0,0,
0,0,0,0,0,0,0,0,0,0,0,0,0,0,0,0,0,0,937,938,939,0,0,0,0,0,0,0,0,0,0,0,0,0,0,0,0,0,0,0,0,0,0,0,0,
0,0,0,0,0,0,0,0,0,0,0,0,0,0,0,0,0,0,945,946,947,0,0,0,0,0,0,0,0,0,0,0,0,0,0,0,0,0,0,0,0,0,0,0,0,
0,0,0,0,0,0,0,0,0,0,0,0,0,0,0,0,0,0,0,0,0,0,0,0,0,0,0,0,0,0,0,0,0,0,0,0,0,0,0,0,0,0,0,0,0,
0,0,0,0,0,0,0,0,0,0,55,0,0,0,0,0,0,0,0,0,0,0,0,0,0,0,0,0,0,0,0,0,0,0,0,0,0,0,0,0,0,0,0,0,0,
0,0,0,0,0,0,0,0,0,0,0,0,0,0,0,0,0,0,0,0,0,0,0,0,0,0,0,0,0,0,0,0,0,0,0,0,0,0,0,0,0,0,0,0,0,
0,0,0,0,50,50,50,0,0,0,0,0,0,0,0,0,0,0,0,0,0,0,0,0,0,0,0,0,0,0,0,0,0,0,0,0,0,0,0,0,0,0,0,0,0,
0,0,0,50,50,0,0,838,839,840,0,0,0,0,0,0,0,0,0,0,0,0,0,0,0,0,0,0,0,0,0,0,1070,1071,1071,1071,1071,1071,1071,1071,1071,1071,1071,1071,1071,
0,0,0,0,0,0,0,846,847,848,0,0,0,0,0,0,0,0,0,0,0,0,0,490,490,490,490,490,0,0,0,0,1078,1079,1079,1079,1079,1079,1079,1079,1079,1079,1079,1079,1079,
0,0,0,0,0,0,0,854,855,856,53,0,0,0,0,0,0,0,0,0,0,0,0,490,0,0,0,490,0,0,0,1070,1102,1079,1079,1079,1079,1079,1079,1079,1079,1079,1079,1079,1079,
0,0,0,0,0,0,54,0,0,0,0,0,0,0,0,0,0,0,0,0,0,0,0,0,0,0,0,0,0,0,0,1078,1079,1079,1079,1079,1079,1093,1087,1087,1087,1087,1087,1087,1087,
0,0,0,0,0,0,0,0,0,0,0,0,65,0,0,0,0,0,0,0,0,0,0,0,0,0,0,0,0,0,0,1078,1079,1079,1079,1079,1093,1088,0,0,0,0,0,0,0,
0,0,0,50,50,0,0,52,0,0,0,0,0,0,0,0,0,0,0,0,0,0,0,0,0,0,0,0,0,0,0,1078,1079,1079,1079,1079,1080,0,0,0,0,0,0,0,0,
0,0,0,0,50,50,0,0,0,0,0,0,0,0,0,0,0,0,0,0,0,0,0,0,0,0,0,0,0,0,0,1078,1079,1079,1079,1079,1080,0,0,0,0,0,0,0,0,
0,0,0,0,0,0,0,0,0,0,0,0,0,0,0,0,0,0,0,0,0,0,0,0,0,0,0,0,0,0,0,1078,1079,1079,1079,1079,1080,0,0,0,0,0,0,0,0,
0,0,0,0,0,0,0,0,0,0,0,0,0,0,0,0,0,0,0,0,0,0,0,0,0,0,0,0,0,0,0,1078,1079,1079,1079,1079,1080,0,0,0,0,0,0,0,0,
0,0,0,0,0,0,0,0,0,0,0,0,0,0,0,0,0,0,0,0,0,0,0,0,0,0,0,0,0,0,0,1078,1079,1079,1079,1079,1080,0,0,0,0,0,0,0,0,
0,0,0,0,0,0,0,0,0,0,0,0,0,0,0,0,0,0,0,0,0,0,0,0,0,0,0,0,0,0,0,1078,1079,1079,1079,1079,1101,1072,0,0,0,0,0,0,0,
0,0,0,0,0,0,0,0,0,0,0,0,0,0,0,0,0,0,0,0,0,0,0,0,0,0,0,0,0,0,0,1078,1079,1079,1079,1079,1079,1101,1072,0,0,0,0,0,0,
0,0,0,0,412,0,0,0,0,0,0,0,0,0,364,0,0,0,0,0,0,0,0,0,0,0,0,0,0,0,0,1086,1094,1079,1079,1079,1079,1079,1080,0,0,0,0,0,0,
0,0,0,0,412,0,0,0,0,0,0,0,0,0,364,0,0,0,0,0,0,0,0,0,0,0,0,0,0,0,0,0,1086,1087,1094,1079,1079,1079,1101,1071,1072,0,0,0,0,
0,0,0,0,412,0,0,0,0,0,0,0,0,0,364,0,0,0,0,0,0,0,0,0,0,0,0,0,0,0,0,0,0,0,1086,1094,1079,1079,1079,1079,1080,0,0,0,0,
0,0,0,0,412,0,0,0,0,0,0,0,0,0,364,0,0,0,0,0,0,0,0,0,0,0,0,0,0,0,0,0,0,0,0,1078,1079,1079,1079,1079,1101,1071,1072,0,0,
0,0,0,0,412,0,0,0,0,0,0,0,0,0,364,0,0,0,0,0,0,0,0,0,0,0,0,0,444,0,0,0,0,0,0,1086,1094,1079,1079,1079,1079,1079,1101,1072,0,
0,0,0,0,380,0,0,0,0,0,0,0,0,0,364,0,0,0,0,0,0,0,0,0,0,0,0,0,0,0,0,0,0,0,0,0,1086,1094,1079,1079,1079,1079,1079,1101,1071,
0,0,0,0,0,0,0,0,0,383,0,0,0,0,0,0,0,0,0,0,0,0,0,0,0,0,0,0,0,0,0,0,444,0,0,0,0,1086,1094,1079,1079,1079,1079,1079,1079,
0,0,0,0,0,0,0,0,0,0,0,0,0,0,0,0,0,0,0,0,0,0,0,0,0,0,0,0,0,0,0,0,0,0,0,0,0,0,1086,1087,1094,1079,1079,1079,1079,
0,0,0,0,0,0,0,0,0,0,0,0,0,0,0,0,0,0,0,0,0,0,0,0,0,0,0,0,0,0,0,0,0,0,0,0,0,0,0,0,1086,1094,1079,1079,1079,
0,0,0,0,0,0,0,0,0,0,0,0,0,0,0,0,0,0,0,0,0,0,0,0,0,0,0,0,0,0,0,0,0,0,0,0,0,0,0,0,0,1078,1079,1079,1079
</data>
 </layer>
 <objectgroup id="4" name="Capa de Objetos 1">
  <object id="5" name="startpos" type="entrypoint" x="503" y="463.333">
   <properties>
    <property name="entrypoint" type="int" value="0"/>
   </properties>
   <point/>
  </object>
  <object id="7" name="fuente" x="574" y="525" width="100" height="83">
   <properties>
    <property name="collides" type="bool" value="true"/>
   </properties>
   <ellipse/>
  </object>
  <object id="12" gid="1061" x="697.837" y="506.206" width="32" height="32"/>
  <object id="15" name="cama" x="740.527" y="665.103" width="54.6667" height="17">
   <properties>
    <property name="interact_zone" type="bool" value="true"/>
   </properties>
  </object>
  <object id="30" name="pelirrojo" type="neutral_npc" x="560.333" y="507">
   <properties>
    <property name="direccion" type="int" value="0"/>
    <property name="nombre" value="pelirrojo"/>
    <property name="speed" type="float" value="5"/>
    <property name="sprite" value="0/2"/>
    <property name="texto" value="Que la prisionera anda con una espada? Como puede ser?"/>
   </properties>
   <point/>
  </object>
  <object id="31" name="dest" x="843" y="697">
   <point/>
  </object>
  <object id="32" name="path" x="736" y="448">
   <polyline points="-503.833,69.6666 -582.5,76.3337 -683,131 -682,210 -440.25,209.584 -198.5,209.167 -199,119"/>
  </object>
  <object id="33" name="angela" type="neutral_npc" x="768" y="620">
   <properties>
    <property name="direccion" type="int" value="0"/>
    <property name="nombre" value="angela"/>
    <property name="speed" type="float" value="6"/>
    <property name="sprite" value="1/1"/>
    <property name="texto" value=""/>
   </properties>
   <point/>
  </object>
  <object id="35" name="tipa" type="neutral_npc" x="476" y="525">
   <properties>
    <property name="direccion" type="int" value="0"/>
    <property name="nombre" value="tipa"/>
    <property name="speed" type="float" value="6"/>
    <property name="sprite" value="0/5,3,4"/>
    <property name="texto" value="Sacame de aqui T_T"/>
   </properties>
   <point/>
  </object>
  <object id="46" name="salir_iglesia" type="entrypoint" x="1088" y="444.667">
   <properties>
    <property name="entrypoint" type="int" value="1"/>
   </properties>
   <point/>
  </object>
  <object id="47" name="to_iglesia" x="1057" y="413" width="62" height="14"/>
 </objectgroup>
 <layer id="6" name="Relieve" width="45" height="45">
  <properties>
   <property name="/relieve" value=""/>
  </properties>
  <data encoding="csv">
0,0,0,0,0,0,0,0,0,0,0,0,0,0,0,0,0,0,0,0,0,0,0,0,0,193,0,0,0,0,0,0,0,0,0,0,0,0,0,0,0,0,193,0,0,
0,0,0,0,0,0,0,0,0,0,0,0,0,0,0,0,0,0,0,0,0,0,0,0,0,193,0,0,0,0,0,0,0,0,0,0,0,0,0,0,0,0,193,0,0,
0,0,0,0,0,0,0,0,0,0,0,0,0,0,0,0,0,0,0,0,0,0,0,0,0,193,0,0,0,0,0,0,0,0,0,0,0,0,0,0,0,0,193,0,0,
0,0,0,0,0,0,0,0,0,0,0,0,0,0,0,0,0,0,0,0,0,0,0,0,0,193,0,0,0,0,0,0,0,0,0,0,0,0,0,0,0,0,193,0,0,
0,0,0,0,0,0,0,0,0,0,0,0,0,0,0,0,0,0,0,0,0,0,0,0,0,193,0,0,0,0,0,0,0,0,0,0,0,0,0,0,0,0,193,0,0,
0,0,0,0,0,0,0,0,0,0,0,0,0,0,0,0,0,0,0,0,0,0,0,0,0,193,0,0,0,0,0,0,0,0,0,0,0,0,0,0,0,0,193,0,0,
0,0,0,0,0,0,0,0,0,0,0,0,0,0,0,0,0,0,0,0,0,0,0,0,0,193,0,0,0,0,0,0,0,0,0,0,0,0,0,0,0,0,193,0,0,
0,0,0,0,0,0,0,0,0,0,0,0,0,0,0,0,0,0,0,0,0,0,0,0,0,193,0,0,0,0,0,0,0,0,0,0,0,0,0,0,0,0,193,0,0,
0,0,0,0,0,0,0,0,0,0,0,0,0,0,0,0,0,0,0,0,0,0,0,0,0,193,0,0,0,0,0,0,0,0,0,0,0,0,0,0,0,0,193,0,0,
0,0,0,0,0,0,0,0,0,0,0,0,0,0,0,0,0,0,0,0,0,0,0,0,0,193,0,0,0,0,0,0,0,0,0,0,0,0,0,0,0,0,193,0,0,
0,0,0,0,0,0,0,0,0,0,0,0,0,0,0,0,0,0,0,0,0,0,0,0,0,193,0,0,0,0,0,0,0,0,0,0,0,0,0,0,0,0,193,0,0,
0,0,0,0,0,0,0,0,0,0,0,0,0,0,0,0,0,0,0,0,0,0,0,0,0,193,0,0,0,0,0,0,0,0,0,0,0,0,0,0,0,0,193,0,0,
0,0,0,0,0,0,0,0,0,0,0,0,0,0,0,0,0,0,0,0,0,0,0,0,944,193,0,0,0,0,0,0,0,0,0,0,0,0,0,0,0,0,193,0,0,
0,0,0,0,0,0,0,0,0,0,0,0,0,0,0,0,0,0,0,0,0,0,0,0,0,193,0,0,0,0,0,0,0,0,0,0,0,0,0,0,0,0,193,0,0,
0,0,0,0,0,0,0,0,0,0,0,0,0,0,0,0,0,0,0,0,0,0,0,0,0,193,0,0,0,0,0,0,0,0,0,0,0,0,0,0,0,0,193,0,0,
0,0,179,185,185,185,185,183,185,185,185,185,185,185,185,180,0,0,0,0,0,0,0,0,0,193,0,0,0,0,0,0,0,0,0,0,0,0,0,0,0,0,193,0,0,
0,0,186,0,0,0,0,177,0,0,0,0,0,0,0,177,0,0,929,930,931,0,0,0,0,203,201,201,201,201,201,201,197,0,0,205,201,201,201,201,201,201,204,0,0,
0,0,0,0,0,0,0,177,0,0,0,0,0,0,0,177,0,0,0,0,0,0,0,0,0,0,0,0,0,0,0,0,0,0,0,0,0,0,0,0,0,0,0,0,0,
0,0,178,0,0,0,0,190,185,185,185,185,185,185,185,188,0,0,0,0,0,0,0,0,0,0,0,0,0,0,0,0,0,0,0,0,0,0,0,0,0,0,0,0,0,
0,0,187,185,185,185,185,188,0,0,0,0,0,0,0,0,0,0,0,0,0,0,0,0,0,0,0,0,0,0,0,0,0,0,0,0,0,0,0,0,0,0,0,0,0,
0,0,0,0,0,0,0,0,0,0,0,0,0,0,0,0,0,0,0,0,0,0,0,0,0,0,0,0,0,0,0,0,0,0,0,0,0,0,0,0,0,0,0,0,0,
0,0,0,0,0,0,0,0,0,0,0,0,0,0,0,0,0,0,0,0,0,0,0,788,789,0,0,0,0,0,0,0,0,0,0,0,0,0,0,0,0,0,0,0,0,
0,0,0,0,0,0,0,0,0,0,0,0,0,0,0,0,0,0,0,0,0,0,0,0,0,0,0,0,0,0,0,0,0,0,0,0,0,0,0,0,0,0,0,0,0,
0,0,0,0,0,0,0,0,0,0,0,0,0,0,0,0,0,0,0,0,0,0,0,0,0,0,0,0,0,0,0,0,0,0,0,0,0,0,0,0,0,0,0,0,0,
0,0,0,0,0,0,0,0,0,0,0,0,0,0,0,0,0,0,0,0,0,0,0,0,0,0,0,0,0,0,0,0,0,0,0,0,0,0,0,0,0,0,0,0,0,
0,0,0,0,0,0,0,0,0,0,0,0,0,0,0,0,0,0,0,0,0,0,0,0,0,0,0,0,0,0,0,0,0,0,0,0,0,0,0,0,0,0,0,0,0,
0,0,0,0,0,0,0,0,0,0,0,0,0,0,0,0,0,0,0,0,0,0,0,0,0,0,0,0,0,0,0,0,0,0,0,0,0,0,0,0,0,0,0,0,0,
0,0,0,0,0,0,0,0,0,0,0,0,0,0,0,0,0,0,0,0,0,0,0,0,0,0,0,0,0,0,0,0,0,0,0,0,0,0,0,0,0,0,0,0,0,
0,0,0,0,0,0,0,0,0,0,0,0,0,0,0,0,0,0,0,0,0,0,0,0,0,0,0,0,0,0,0,0,0,0,0,0,0,0,0,0,0,0,0,0,0,
0,0,0,0,0,0,0,0,0,0,0,0,0,0,0,0,0,0,0,0,0,0,0,0,0,0,0,0,0,0,0,0,0,0,0,0,0,0,0,0,0,0,0,0,0,
0,0,0,0,0,0,0,0,0,0,0,0,0,0,0,0,0,0,0,0,0,0,0,0,0,0,0,0,0,0,0,0,0,0,0,0,0,0,0,0,0,0,0,0,0,
0,0,0,0,0,0,0,0,0,0,0,0,0,0,0,0,0,0,0,0,0,0,0,0,0,0,0,0,0,0,0,0,0,0,0,0,0,0,0,0,0,0,0,0,0,
0,0,0,0,0,0,0,0,0,0,0,0,0,0,0,0,0,0,0,0,0,0,0,0,0,0,0,0,0,0,0,0,0,0,0,0,0,0,0,0,0,0,0,0,0,
0,0,0,0,0,0,0,0,0,0,0,0,0,0,0,0,0,0,0,0,0,0,0,0,0,0,0,0,0,0,0,0,0,0,0,0,0,0,0,0,0,0,0,0,0,
0,0,0,0,0,0,0,0,0,0,0,0,0,0,0,0,0,0,0,0,0,0,0,0,0,0,0,0,0,0,0,0,0,0,0,0,0,0,0,0,0,0,0,0,0,
0,0,0,0,0,0,0,0,0,0,0,0,0,0,0,0,0,0,0,0,0,0,0,0,0,0,0,0,0,0,0,0,0,0,0,0,0,0,0,0,0,0,0,0,0,
0,0,0,0,0,0,0,0,0,0,0,0,0,0,0,0,0,0,0,0,0,0,0,0,0,0,0,0,0,0,0,0,0,0,0,0,0,0,0,0,0,0,0,0,0,
0,0,0,0,0,0,0,0,0,0,0,0,0,0,0,0,0,0,0,0,0,0,0,0,0,0,0,0,0,0,0,0,0,0,0,0,0,0,0,0,0,0,0,0,0,
0,0,0,0,0,0,0,0,0,0,0,0,0,0,0,0,0,0,0,0,0,0,0,0,0,0,0,0,0,0,0,0,0,0,0,0,0,0,0,0,0,0,0,0,0,
0,0,0,0,0,0,0,0,0,0,0,0,0,0,0,0,0,0,0,0,0,0,0,0,0,0,0,0,0,0,0,0,0,0,0,0,0,0,0,0,0,0,0,0,0,
0,0,0,0,0,0,0,0,0,0,0,0,0,0,0,0,0,0,0,0,0,0,0,0,0,0,0,0,0,0,0,0,0,0,0,0,0,0,0,0,0,0,0,0,0,
0,0,0,0,0,0,0,0,0,0,0,0,0,0,0,0,0,0,0,0,0,0,0,0,0,0,0,0,0,0,0,0,0,0,0,0,0,0,0,0,0,0,0,0,0,
0,0,0,0,0,0,0,0,0,0,0,0,0,0,0,0,0,0,0,0,0,0,0,0,0,0,0,0,0,0,0,0,0,0,0,0,0,0,0,0,0,0,0,0,0,
0,0,0,0,0,0,0,0,0,0,0,0,0,0,0,0,0,0,0,0,0,0,0,0,0,0,0,0,0,0,0,0,0,0,0,0,0,0,0,0,0,0,0,0,0,
0,0,0,0,0,0,0,0,0,0,0,0,0,0,0,0,0,0,0,0,0,0,0,0,0,0,0,0,0,0,0,0,0,0,0,0,0,0,0,0,0,0,0,0,0
</data>
 </layer>
 <layer id="7" name="Buildings" width="45" height="45">
  <data encoding="csv">
0,0,0,0,0,0,0,0,0,0,0,0,0,0,0,0,0,0,0,0,0,0,0,0,0,0,0,0,0,0,0,0,0,0,0,0,0,0,0,68,0,0,0,0,0,
0,0,0,0,0,0,0,0,0,0,0,0,0,0,0,0,0,0,0,0,0,0,0,0,0,0,0,0,0,0,0,0,0,0,0,0,0,0,0,0,0,0,0,0,0,
0,0,477,477,475,0,0,0,0,0,0,0,0,0,0,0,0,0,0,0,0,0,0,0,0,0,0,0,0,0,0,489,489,489,489,489,489,0,0,0,0,0,0,0,0,
0,0,477,0,0,0,0,0,0,0,0,0,0,0,0,0,0,505,506,506,506,506,506,0,0,0,0,0,0,0,0,489,581,589,581,581,489,0,0,0,0,0,0,0,0,
0,0,477,0,0,0,0,0,0,0,0,0,0,0,0,0,0,0,0,0,0,0,506,0,0,0,0,489,489,489,489,579,589,589,589,589,579,489,489,489,489,0,0,0,0,
0,0,477,0,0,0,0,0,0,0,0,0,0,0,0,0,0,0,0,0,0,0,506,0,0,0,0,489,587,587,587,579,482,482,482,482,579,587,587,587,489,0,0,0,0,
0,0,477,0,0,0,0,0,0,0,0,0,0,0,0,0,0,0,0,0,0,0,506,0,0,0,0,489,482,482,482,579,482,482,482,482,579,485,482,482,489,0,0,0,0,
0,0,477,0,0,0,0,0,0,0,0,0,0,0,0,0,0,0,0,0,0,0,506,0,0,0,0,489,482,482,482,579,490,490,490,490,579,485,482,482,489,0,0,0,0,
0,0,476,0,0,0,0,0,0,0,0,0,0,0,0,0,0,0,0,0,0,0,508,0,0,0,0,489,490,490,490,489,579,579,579,579,489,493,490,490,491,0,0,0,0,
0,0,0,0,0,0,0,0,0,0,0,0,0,0,0,0,0,0,0,0,0,0,0,0,0,0,0,0,0,0,0,489,587,587,587,587,489,0,0,0,0,0,0,0,0,
0,0,0,0,0,0,0,0,0,0,0,0,0,0,0,0,0,0,0,0,0,0,0,0,0,0,0,0,0,0,0,489,482,482,482,482,489,0,0,0,0,0,0,0,0,
0,0,0,0,0,0,0,0,0,0,0,0,0,0,0,0,0,0,0,0,0,0,0,0,0,0,0,0,0,0,0,489,482,643,644,482,489,0,0,0,0,0,0,0,0,
0,0,0,0,0,0,0,0,0,0,0,0,0,0,0,0,0,0,0,0,0,0,0,0,0,0,0,0,0,0,0,489,490,651,652,490,491,0,0,0,0,0,0,0,0,
0,0,0,0,0,0,0,0,0,0,0,0,0,0,0,0,0,0,0,0,0,0,0,0,0,0,0,0,0,0,0,0,0,0,0,0,0,0,0,0,0,0,0,0,0,
0,0,0,0,0,0,0,0,0,0,0,0,0,0,0,0,0,0,0,0,0,0,0,0,0,0,0,0,0,0,0,0,0,0,0,0,0,0,0,0,0,0,0,0,0,
0,0,0,0,0,0,0,0,0,0,0,0,0,0,0,0,0,0,0,0,0,0,0,0,0,0,0,0,0,0,0,0,0,0,0,0,0,0,0,0,0,0,0,0,0,
0,0,0,0,0,0,0,0,0,0,0,0,0,0,0,0,0,0,0,0,0,0,0,0,0,0,0,0,0,0,0,0,0,0,0,0,0,0,0,0,0,0,0,0,0,
0,0,0,0,0,0,0,0,0,0,0,0,0,0,0,0,0,0,0,0,0,0,0,0,0,0,0,0,0,0,0,0,0,0,0,0,0,0,0,0,0,0,0,0,0,
0,0,0,0,0,0,0,0,0,0,0,0,0,0,0,0,0,0,0,0,0,0,0,0,0,0,0,0,0,0,0,0,0,0,0,0,0,0,0,0,0,0,0,0,0,
0,0,0,0,0,0,0,0,0,0,0,0,0,0,0,0,0,0,0,0,0,0,0,0,0,0,0,0,0,0,0,0,0,0,0,0,0,0,0,0,0,0,0,0,0,
0,0,0,0,0,0,0,0,0,0,0,0,0,0,0,0,0,0,0,0,0,0,0,0,0,0,0,0,0,0,0,0,460,461,458,458,458,458,458,458,458,458,458,459,0,
0,0,0,0,0,0,0,0,0,0,0,0,0,0,0,0,0,0,0,0,0,0,0,0,0,0,0,0,0,0,0,0,460,0,0,0,0,0,0,0,0,0,0,0,0,
0,0,0,0,0,0,0,0,0,0,0,0,0,0,0,0,0,0,0,0,0,0,0,0,0,0,0,0,0,0,0,0,0,0,0,0,0,0,0,0,0,0,0,0,0,
0,0,0,0,0,0,0,0,0,0,0,0,0,0,0,0,0,0,0,0,0,0,0,0,0,0,0,0,0,0,0,0,0,0,0,0,0,0,0,0,0,0,0,0,0,
0,0,0,0,0,0,0,0,0,0,0,0,0,0,950,0,0,0,0,950,0,0,0,0,0,0,0,0,0,0,0,0,0,0,0,0,0,0,0,0,0,0,0,0,0,
0,0,0,0,0,0,0,0,0,0,0,0,0,0,0,0,0,0,0,0,0,0,0,0,0,0,0,0,0,0,0,0,0,0,0,0,0,0,0,0,0,0,0,0,0,
0,0,541,541,539,0,0,0,0,0,0,0,0,0,0,0,0,0,0,0,0,0,0,489,490,495,490,491,0,0,0,0,0,0,0,0,0,0,0,0,0,0,0,0,0,
0,0,541,0,0,0,0,0,0,0,0,0,0,0,0,0,0,0,0,0,0,0,0,0,0,0,0,0,0,0,0,0,0,0,0,0,0,0,0,0,0,0,0,0,0,
0,0,541,50,50,0,0,0,0,0,0,0,0,0,0,0,0,0,0,0,0,0,0,0,0,0,0,0,0,0,0,0,0,0,0,0,0,0,0,0,0,0,0,0,0,
0,0,541,0,50,0,0,0,0,0,0,0,0,0,523,0,0,0,0,0,0,0,0,0,0,0,0,0,0,0,0,0,0,0,0,0,0,0,0,0,0,0,0,0,0,
0,0,541,0,0,0,0,0,0,0,0,0,0,0,523,0,0,0,0,0,0,0,0,0,0,0,0,0,0,0,0,0,0,0,0,0,0,0,0,0,0,0,0,0,0,
0,0,540,0,0,0,0,0,521,522,522,522,522,522,523,0,0,0,0,0,0,0,0,0,0,0,0,0,0,0,0,0,0,0,0,0,0,0,0,0,0,0,0,0,0,
0,0,0,0,0,0,0,0,0,0,0,0,0,0,0,0,0,0,0,0,0,0,0,0,0,0,0,0,0,0,0,0,0,0,0,0,0,0,0,0,0,0,0,0,0,
0,0,0,0,0,0,0,0,0,0,0,0,0,0,0,0,0,0,0,0,0,0,0,0,0,0,0,0,0,0,0,0,0,0,0,0,0,0,0,0,0,0,0,0,0,
0,0,0,0,0,0,0,0,0,0,0,0,0,0,0,0,0,0,429,429,427,0,0,0,0,0,0,0,0,0,0,0,0,0,0,0,0,0,0,0,0,0,0,0,0,
0,0,0,0,0,413,410,410,411,361,362,362,362,362,0,0,0,0,429,0,0,0,0,0,0,0,0,0,0,0,0,0,0,0,0,0,0,0,0,0,0,0,0,0,0,
0,0,0,0,0,0,0,0,0,0,0,0,0,0,0,0,0,0,429,0,0,0,0,0,0,0,0,0,0,0,0,0,0,0,0,0,0,0,0,0,0,0,0,0,0,
0,0,0,0,0,0,0,0,0,0,0,0,0,0,0,0,0,0,429,0,0,0,0,0,0,0,0,0,0,0,0,0,0,0,0,0,0,0,0,0,0,0,0,0,0,
0,0,0,0,0,0,0,0,0,0,0,0,0,0,0,0,0,0,428,0,0,0,0,0,0,0,0,0,0,0,0,0,0,0,0,0,0,0,0,0,0,0,0,0,0,
0,0,0,0,0,0,0,0,0,0,0,0,0,0,0,0,0,0,0,0,0,0,0,0,0,439,0,0,0,445,442,442,444,0,0,0,0,0,0,0,0,0,0,0,0,
0,0,0,0,0,0,0,0,0,0,0,0,0,0,0,0,0,0,0,0,0,0,444,445,442,447,442,442,443,0,0,0,444,0,0,0,0,0,0,0,0,0,0,0,0,
0,0,0,0,377,378,378,378,379,0,377,378,378,378,379,0,0,0,0,0,0,0,444,0,0,0,0,0,0,0,0,0,436,0,0,0,0,0,0,0,0,0,0,0,0,
0,0,0,0,0,0,0,0,0,0,0,0,0,0,0,0,0,0,0,0,0,0,444,0,0,0,0,0,0,0,0,0,444,0,0,0,0,0,0,0,0,0,0,0,0,
0,0,0,0,0,0,0,0,0,0,0,0,0,0,0,0,0,0,0,0,0,0,444,0,0,0,0,0,0,0,0,0,0,0,0,0,0,0,0,0,0,0,0,0,0,
0,0,0,0,0,0,0,0,0,0,0,0,0,0,0,0,0,0,0,0,0,0,444,0,0,0,0,0,0,0,0,0,0,0,0,0,0,0,0,0,0,0,0,0,0
</data>
 </layer>
 <layer id="12" name="Puente 1" width="45" height="45">
  <properties>
   <property name="level" type="int" value="1"/>
  </properties>
  <data encoding="csv">
0,0,0,0,0,0,0,0,0,0,0,0,0,0,0,0,0,0,0,0,0,0,0,0,0,0,0,0,0,0,0,0,0,0,0,0,0,0,0,0,0,0,0,0,0,
0,0,0,0,0,0,0,0,0,0,0,0,0,0,0,0,0,0,0,0,0,0,0,0,0,0,0,0,0,0,0,0,0,0,0,0,0,0,0,0,0,0,0,0,0,
0,0,0,0,0,0,0,0,0,0,0,0,0,0,0,0,0,0,0,0,0,0,0,0,0,0,0,0,0,0,0,0,0,0,0,0,0,0,0,0,0,0,0,0,0,
0,0,0,0,0,0,0,0,0,0,0,0,0,0,0,0,0,0,0,0,0,0,0,0,0,0,0,0,0,0,0,0,0,0,0,0,0,0,0,0,0,0,0,0,0,
0,0,0,0,0,0,0,0,0,0,0,0,0,0,0,0,0,0,0,0,0,0,0,0,0,0,0,0,0,0,0,0,0,0,0,0,0,0,0,0,0,0,0,0,0,
0,0,0,0,0,0,0,0,0,0,0,0,0,0,0,0,0,0,0,0,0,0,0,0,0,0,0,0,0,0,0,0,0,0,0,0,0,0,0,0,0,0,0,0,0,
0,0,0,0,0,0,0,0,0,0,0,0,0,0,0,0,0,0,0,0,0,0,0,0,0,0,0,0,0,0,0,0,0,0,0,0,0,0,0,0,0,0,0,0,0,
0,0,0,0,0,0,0,0,0,0,0,0,0,0,0,0,0,0,0,0,0,0,0,0,0,0,0,0,0,0,0,0,0,0,0,0,0,0,0,0,0,0,0,0,0,
0,0,0,0,0,0,0,0,0,0,0,0,0,0,0,0,0,0,0,0,0,0,0,0,0,0,0,0,0,0,0,0,0,0,0,0,0,0,0,0,0,0,0,0,0,
0,0,0,0,0,0,0,0,0,0,0,0,0,0,0,0,0,0,0,0,0,0,0,0,0,0,0,0,0,0,0,0,0,0,0,0,0,0,0,0,0,0,0,0,0,
0,0,0,0,0,0,0,0,0,0,0,0,0,0,0,0,0,0,0,0,0,0,0,0,0,0,0,0,0,0,0,0,0,0,0,0,0,0,0,0,0,0,0,0,0,
0,0,0,0,0,0,0,0,0,0,0,0,0,0,0,0,0,0,0,0,0,0,0,0,0,0,0,0,0,0,0,0,0,0,0,0,0,0,0,0,0,0,0,0,0,
0,0,0,0,0,0,0,0,0,0,0,0,0,0,0,0,0,0,0,0,0,0,0,0,0,0,0,0,0,0,0,0,0,0,0,0,0,0,0,0,0,0,0,0,0,
0,0,0,0,0,0,0,0,0,0,0,0,0,0,0,0,0,0,0,0,0,0,0,0,0,0,0,0,0,0,0,0,0,0,0,0,0,0,0,0,0,0,0,0,0,
0,0,0,0,0,0,0,0,0,0,0,0,0,0,0,0,0,0,0,0,0,0,0,0,0,0,0,0,0,0,0,0,0,0,0,0,0,0,0,0,0,0,0,0,0,
0,0,0,0,0,0,0,0,0,0,0,0,0,0,0,0,0,0,0,0,0,0,0,0,0,0,0,0,0,0,0,0,0,0,0,0,0,0,0,0,0,0,0,0,0,
0,0,0,0,0,0,0,0,0,0,0,0,0,0,0,0,0,0,0,0,0,0,0,0,0,0,0,0,0,0,0,0,0,0,0,0,0,0,0,0,0,0,0,0,0,
0,0,0,0,0,0,0,0,0,0,0,0,0,0,0,0,0,0,0,0,0,0,0,0,0,0,0,0,0,0,0,0,0,0,0,0,0,0,0,0,0,0,0,0,0,
0,0,0,0,0,0,0,0,0,0,0,0,0,0,0,0,0,0,0,0,0,0,0,0,0,0,0,0,0,0,0,0,0,0,0,0,0,0,0,0,0,0,0,0,0,
0,0,0,0,0,0,0,0,0,0,0,0,0,0,0,0,0,0,0,0,0,0,0,0,0,0,0,0,0,0,0,0,0,0,0,0,0,0,0,0,0,0,0,0,0,
0,0,0,0,0,0,0,0,0,0,0,0,0,0,0,0,0,0,0,0,0,0,0,0,0,0,0,0,0,0,0,0,0,0,0,0,0,0,0,0,0,0,0,0,0,
0,0,0,0,0,0,0,0,0,0,0,0,0,0,0,0,0,0,0,0,0,0,0,0,0,0,0,0,0,0,0,0,0,0,0,0,0,0,0,0,0,0,0,0,0,
0,0,0,0,0,0,0,0,0,0,0,0,0,0,0,0,0,0,0,0,0,0,0,0,0,0,0,0,0,0,0,0,0,0,0,0,0,0,0,0,0,0,0,0,0,
0,0,0,0,0,0,0,0,0,0,0,0,0,0,0,0,0,0,0,0,0,0,0,0,0,0,0,0,0,0,0,0,0,0,0,0,0,0,0,0,0,0,0,0,0,
0,0,0,0,0,0,0,0,0,0,0,0,0,0,0,0,0,0,0,0,0,0,0,0,0,0,0,0,0,0,0,0,0,0,0,0,0,0,0,0,0,0,0,0,0,
0,0,0,0,0,0,0,0,0,0,0,0,0,0,0,0,0,0,0,0,0,0,0,0,0,0,0,0,0,0,0,0,0,0,0,0,0,0,0,0,0,0,0,0,0,
0,0,0,0,0,0,0,0,0,0,0,0,0,0,0,0,0,0,0,0,0,0,0,0,0,0,0,0,0,0,0,0,0,0,0,0,0,0,0,0,0,0,0,0,0,
0,0,0,0,0,0,0,0,0,0,0,0,0,0,0,0,0,0,0,0,0,0,0,0,0,0,0,319,241,241,241,241,241,241,241,241,241,241,241,74,74,75,0,0,0,
0,0,0,0,0,0,0,0,0,0,0,0,0,0,0,0,0,0,0,0,0,0,0,0,226,226,226,327,249,249,249,249,249,249,249,249,249,249,249,1,1,91,0,0,0,
0,0,0,0,0,0,0,0,0,0,0,0,0,0,0,0,0,0,0,0,0,0,0,0,226,226,226,327,257,257,257,257,257,257,257,257,257,257,257,257,257,99,0,0,0,
0,0,0,0,0,0,0,0,0,0,0,0,0,0,0,0,0,0,0,0,0,0,0,0,337,338,338,339,242,243,243,243,243,243,243,243,243,243,244,259,259,107,0,0,0,
0,0,0,0,0,0,0,0,0,0,0,0,0,0,0,0,0,0,0,0,0,0,0,0,345,346,346,347,0,0,0,0,0,0,0,0,0,0,0,0,0,0,0,0,0,
0,0,0,0,0,0,0,0,0,0,0,0,0,0,0,0,0,0,0,0,0,0,0,0,0,0,0,0,0,0,0,0,0,0,0,0,0,0,0,0,0,0,0,0,0,
0,0,0,0,0,0,0,0,0,0,0,0,0,0,0,0,0,0,0,0,0,0,0,0,0,0,0,0,0,0,0,0,0,0,0,0,0,0,0,0,0,0,0,0,0,
0,0,0,0,0,0,0,0,0,0,0,0,0,0,0,0,0,0,0,0,0,0,0,0,0,0,0,0,0,0,0,0,0,0,0,0,0,0,0,0,0,0,0,0,0,
0,0,0,0,0,0,0,0,0,0,0,0,0,0,0,0,0,0,0,0,0,0,0,0,0,0,0,0,0,0,0,0,0,0,0,0,0,0,0,0,0,0,0,0,0,
0,0,0,0,0,0,0,0,0,0,0,0,0,0,0,0,0,0,0,0,0,0,0,0,0,0,0,0,0,0,0,0,0,0,0,0,0,0,0,0,0,0,0,0,0,
0,0,0,0,0,0,0,0,0,0,0,0,0,0,0,0,0,0,0,0,0,0,0,0,0,0,0,0,0,0,0,0,0,0,0,0,0,0,0,0,0,0,0,0,0,
0,0,0,0,0,0,0,0,0,0,0,0,0,0,0,0,0,0,0,0,0,0,0,0,0,0,0,0,0,0,0,0,0,0,0,0,0,0,0,0,0,0,0,0,0,
0,0,0,0,0,0,0,0,0,0,0,0,0,0,0,0,0,0,0,0,0,0,0,0,0,0,0,0,0,0,0,0,0,0,0,0,0,0,0,0,0,0,0,0,0,
0,0,0,0,0,0,0,0,0,0,0,0,0,0,0,0,0,0,0,0,0,0,0,0,0,0,0,0,0,0,0,0,0,0,0,0,0,0,0,0,0,0,0,0,0,
0,0,0,0,0,0,0,0,0,0,0,0,0,0,0,0,0,0,0,0,0,0,0,0,0,0,0,0,0,0,0,0,0,0,0,0,0,0,0,0,0,0,0,0,0,
0,0,0,0,0,0,0,0,0,0,0,0,0,0,0,0,0,0,0,0,0,0,0,0,0,0,0,0,0,0,0,0,0,0,0,0,0,0,0,0,0,0,0,0,0,
0,0,0,0,0,0,0,0,0,0,0,0,0,0,0,0,0,0,0,0,0,0,0,0,0,0,0,0,0,0,0,0,0,0,0,0,0,0,0,0,0,0,0,0,0,
0,0,0,0,0,0,0,0,0,0,0,0,0,0,0,0,0,0,0,0,0,0,0,0,0,0,0,0,0,0,0,0,0,0,0,0,0,0,0,0,0,0,0,0,0
</data>
 </layer>
 <layer id="13" name="Puente 2" width="45" height="45">
  <properties>
   <property name="level" type="int" value="1"/>
  </properties>
  <data encoding="csv">
0,0,0,0,0,0,0,0,0,0,0,0,0,0,0,0,0,0,0,0,0,0,0,0,0,0,0,0,0,0,0,0,0,0,0,0,0,0,0,0,0,0,0,0,0,
0,0,0,0,0,0,0,0,0,0,0,0,0,0,0,0,0,0,0,0,0,0,0,0,0,0,0,0,0,0,0,0,0,0,0,0,0,0,0,0,0,0,0,0,0,
0,0,0,0,0,0,0,0,0,0,0,0,0,0,0,0,0,0,0,0,0,0,0,0,0,0,0,0,0,0,0,0,0,0,0,0,0,0,0,0,0,0,0,0,0,
0,0,0,0,0,0,0,0,0,0,0,0,0,0,0,0,0,0,0,0,0,0,0,0,0,0,0,0,0,0,0,0,0,0,0,0,0,0,0,0,0,0,0,0,0,
0,0,0,0,0,0,0,0,0,0,0,0,0,0,0,0,0,0,0,0,0,0,0,0,0,0,0,0,0,0,0,0,0,0,0,0,0,0,0,0,0,0,0,0,0,
0,0,0,0,0,0,0,0,0,0,0,0,0,0,0,0,0,0,0,0,0,0,0,0,0,0,0,0,0,0,0,0,0,0,0,0,0,0,0,0,0,0,0,0,0,
0,0,0,0,0,0,0,0,0,0,0,0,0,0,0,0,0,0,0,0,0,0,0,0,0,0,0,0,0,0,0,0,0,0,0,0,0,0,0,0,0,0,0,0,0,
0,0,0,0,0,0,0,0,0,0,0,0,0,0,0,0,0,0,0,0,0,0,0,0,0,0,0,0,0,0,0,0,0,0,0,0,0,0,0,0,0,0,0,0,0,
0,0,0,0,0,0,0,0,0,0,0,0,0,0,0,0,0,0,0,0,0,0,0,0,0,0,0,0,0,0,0,0,0,0,0,0,0,0,0,0,0,0,0,0,0,
0,0,0,0,0,0,0,0,0,0,0,0,0,0,0,0,0,0,0,0,0,0,0,0,0,0,0,0,0,0,0,0,0,0,0,0,0,0,0,0,0,0,0,0,0,
0,0,0,0,0,0,0,0,0,0,0,0,0,0,0,0,0,0,0,0,0,0,0,0,0,0,0,0,0,0,0,0,0,0,0,0,0,0,0,0,0,0,0,0,0,
0,0,0,0,0,0,0,0,0,0,0,0,0,0,0,0,0,0,0,0,0,0,0,0,0,0,0,0,0,0,0,0,0,0,0,0,0,0,0,0,0,0,0,0,0,
0,0,0,0,0,0,0,0,0,0,0,0,0,0,0,0,0,0,0,0,0,0,0,0,0,0,0,0,0,0,0,0,0,0,0,0,0,0,0,0,0,0,0,0,0,
0,0,0,0,0,0,0,0,0,0,0,0,0,0,0,0,0,0,0,0,0,0,0,0,0,0,0,0,0,0,0,0,0,0,0,0,0,0,0,0,0,0,0,0,0,
0,0,0,0,0,0,0,0,0,0,0,0,0,0,0,0,0,0,0,0,0,0,0,0,0,0,0,0,0,0,0,0,0,0,0,0,0,0,0,0,0,0,0,0,0,
0,0,0,0,0,0,0,0,0,0,0,0,0,0,0,0,0,0,0,0,0,0,0,0,0,0,0,0,0,0,0,0,0,0,0,0,0,0,0,0,0,0,0,0,0,
0,0,0,0,0,0,0,0,0,0,0,0,0,0,0,0,0,0,0,0,0,0,0,0,0,0,0,0,0,0,0,0,0,0,0,0,0,0,0,0,0,0,0,0,0,
0,0,0,0,0,0,0,0,0,0,0,0,0,0,0,0,0,0,0,0,0,0,0,0,0,0,0,0,0,0,0,0,0,0,0,0,0,0,0,0,0,0,0,0,0,
0,0,0,0,0,0,0,0,0,0,0,0,0,0,0,0,0,0,0,0,0,0,0,0,0,0,0,0,0,0,0,0,0,0,0,0,0,0,0,0,0,0,0,0,0,
0,0,0,0,0,0,0,0,0,0,0,0,0,0,0,0,0,0,0,0,0,0,0,0,0,0,0,0,0,0,0,0,0,0,0,0,0,0,0,0,0,0,0,0,0,
0,0,0,0,0,0,0,0,0,0,0,0,0,0,0,0,0,0,0,0,0,0,0,0,0,0,0,0,0,0,0,0,0,0,0,0,0,0,0,0,0,0,0,0,0,
0,0,0,0,0,0,0,0,0,0,0,0,0,0,0,0,0,0,0,0,0,0,0,0,0,0,0,0,0,0,0,0,0,0,0,0,0,0,0,0,0,0,0,0,0,
0,0,0,0,0,0,0,0,0,0,0,0,0,0,0,0,0,0,0,0,0,0,0,0,0,0,0,0,0,0,0,0,0,0,0,0,0,0,0,0,0,0,0,0,0,
0,0,0,0,0,0,0,0,0,0,0,0,0,0,0,0,0,0,0,0,0,0,0,0,0,0,0,0,0,0,0,0,0,0,0,0,0,0,0,0,0,0,0,0,0,
0,0,0,0,0,0,0,0,0,0,0,0,0,0,0,0,0,0,0,0,0,0,0,0,0,0,0,0,0,0,0,0,0,0,0,0,0,0,0,0,0,0,0,0,0,
0,0,0,0,0,0,0,0,0,0,0,0,0,0,0,0,0,0,0,0,0,0,0,0,0,0,0,0,0,0,0,0,0,0,0,0,0,0,0,0,0,0,0,0,0,
0,0,0,0,0,0,0,0,0,0,0,0,0,0,0,0,0,0,0,0,0,0,0,0,0,0,0,0,0,0,0,0,0,0,0,0,0,0,0,0,9,10,0,0,0,
0,0,0,0,0,0,0,0,0,0,0,0,0,0,0,0,0,0,0,0,0,0,0,0,0,0,0,0,0,0,0,0,0,0,0,0,0,0,0,0,17,18,0,0,0,
0,0,0,0,0,0,0,0,0,0,0,0,0,0,0,0,0,0,0,0,0,0,0,0,0,0,0,319,0,0,0,0,0,0,0,0,0,0,0,0,0,0,0,0,0,
0,0,0,0,0,0,0,0,0,0,0,0,0,0,0,0,0,0,0,0,0,0,0,0,0,0,0,331,0,0,0,0,0,0,0,0,0,0,0,0,0,0,0,0,0,
0,0,0,0,0,0,0,0,0,0,0,0,0,0,0,0,0,0,0,0,0,0,0,0,0,0,0,0,0,0,0,0,0,0,0,0,0,0,0,0,0,0,0,0,0,
0,0,0,0,0,0,0,0,0,0,0,0,0,0,0,0,0,0,0,0,0,0,0,0,0,0,0,0,0,0,0,0,0,0,0,0,0,0,0,0,0,0,0,0,0,
0,0,0,0,0,0,0,0,0,0,0,0,0,0,0,0,0,0,0,0,0,0,0,0,0,0,0,0,0,0,0,0,0,0,0,0,0,0,0,0,0,0,0,0,0,
0,0,0,0,0,0,0,0,0,0,0,0,0,0,0,0,0,0,0,0,0,0,0,0,0,0,0,0,0,0,0,0,0,0,0,0,0,0,0,0,0,0,0,0,0,
0,0,0,0,0,0,0,0,0,0,0,0,0,0,0,0,0,0,0,0,0,0,0,0,0,0,0,0,0,0,0,0,0,0,0,0,0,0,0,0,0,0,0,0,0,
0,0,0,0,0,0,0,0,0,0,0,0,0,0,0,0,0,0,0,0,0,0,0,0,0,0,0,0,0,0,0,0,0,0,0,0,0,0,0,0,0,0,0,0,0,
0,0,0,0,0,0,0,0,0,0,0,0,0,0,0,0,0,0,0,0,0,0,0,0,0,0,0,0,0,0,0,0,0,0,0,0,0,0,0,0,0,0,0,0,0,
0,0,0,0,0,0,0,0,0,0,0,0,0,0,0,0,0,0,0,0,0,0,0,0,0,0,0,0,0,0,0,0,0,0,0,0,0,0,0,0,0,0,0,0,0,
0,0,0,0,0,0,0,0,0,0,0,0,0,0,0,0,0,0,0,0,0,0,0,0,0,0,0,0,0,0,0,0,0,0,0,0,0,0,0,0,0,0,0,0,0,
0,0,0,0,0,0,0,0,0,0,0,0,0,0,0,0,0,0,0,0,0,0,0,0,0,0,0,0,0,0,0,0,0,0,0,0,0,0,0,0,0,0,0,0,0,
0,0,0,0,0,0,0,0,0,0,0,0,0,0,0,0,0,0,0,0,0,0,0,0,0,0,0,0,0,0,0,0,0,0,0,0,0,0,0,0,0,0,0,0,0,
0,0,0,0,0,0,0,0,0,0,0,0,0,0,0,0,0,0,0,0,0,0,0,0,0,0,0,0,0,0,0,0,0,0,0,0,0,0,0,0,0,0,0,0,0,
0,0,0,0,0,0,0,0,0,0,0,0,0,0,0,0,0,0,0,0,0,0,0,0,0,0,0,0,0,0,0,0,0,0,0,0,0,0,0,0,0,0,0,0,0,
0,0,0,0,0,0,0,0,0,0,0,0,0,0,0,0,0,0,0,0,0,0,0,0,0,0,0,0,0,0,0,0,0,0,0,0,0,0,0,0,0,0,0,0,0,
0,0,0,0,0,0,0,0,0,0,0,0,0,0,0,0,0,0,0,0,0,0,0,0,0,0,0,0,0,0,0,0,0,0,0,0,0,0,0,0,0,0,0,0,0
</data>
 </layer>
 <layer id="3" name="Árboles" width="45" height="45">
  <data encoding="csv">
0,0,0,0,0,0,0,0,0,0,0,0,0,0,0,0,0,0,0,0,0,0,0,0,0,0,0,0,0,0,0,0,0,0,0,0,0,0,0,0,0,0,0,0,0,
0,0,0,0,0,0,0,0,0,0,0,0,0,0,0,0,0,0,0,0,0,0,0,0,0,0,0,0,0,0,0,0,0,0,0,0,0,0,0,0,0,0,0,0,0,
0,0,0,0,0,0,0,0,0,0,0,0,0,0,0,0,0,0,0,0,0,0,0,0,0,0,0,0,0,0,0,0,0,615,615,0,0,0,0,0,0,0,0,0,0,
0,0,0,0,0,0,0,0,0,0,0,0,0,0,0,0,0,0,0,0,0,0,0,0,0,0,0,0,0,0,0,0,0,0,0,0,0,0,0,0,0,0,0,0,0,
0,0,0,0,0,0,0,34,33,34,33,34,33,0,0,0,0,0,0,0,0,0,0,0,0,0,0,0,0,0,0,0,0,0,0,0,0,0,0,0,0,0,0,0,0,
0,0,0,0,0,0,17,33,34,33,34,33,34,33,0,0,0,0,0,0,0,0,0,0,0,0,0,0,0,0,0,0,0,0,0,0,0,0,0,0,0,0,0,0,0,
0,0,0,0,0,0,0,34,33,34,33,34,33,34,33,0,0,0,0,0,0,0,0,0,0,0,0,0,624,623,0,0,0,613,613,0,0,0,623,624,0,0,0,0,0,
0,0,0,0,0,0,17,33,34,33,34,33,34,33,34,18,56,0,0,0,0,0,0,0,0,0,0,0,632,631,0,0,0,621,621,0,0,0,631,632,0,0,0,0,0,
0,0,0,0,0,0,0,34,33,34,33,34,33,34,33,0,0,0,0,0,0,0,0,0,0,0,0,0,640,639,0,0,0,0,0,0,0,0,639,640,0,0,0,0,0,
0,0,0,0,0,0,17,33,34,33,34,33,34,33,34,18,0,0,0,0,0,0,0,0,0,0,0,0,0,0,0,0,0,0,0,0,0,0,0,0,0,0,0,0,0,
0,0,0,0,0,0,0,34,33,34,33,34,33,34,33,0,0,0,0,1017,1018,0,0,0,0,0,0,0,0,0,0,0,0,0,0,0,0,0,0,0,0,0,0,0,0,
0,0,0,0,0,0,17,33,34,33,34,33,34,33,34,18,0,0,0,1025,1026,1027,1009,1019,0,0,0,0,0,0,0,0,0,0,0,0,0,0,0,0,0,0,0,0,0,
0,0,0,0,0,0,54,17,18,17,18,17,18,17,18,53,0,0,0,0,0,0,0,0,0,0,0,0,0,0,0,0,924,0,0,924,0,0,0,0,0,0,0,0,0,
0,0,0,0,0,0,0,54,0,0,0,0,0,46,53,53,0,0,0,0,0,0,0,0,0,0,0,0,0,0,0,0,932,0,0,932,0,0,0,948,949,0,0,0,0,
0,0,0,0,0,0,0,0,0,0,0,0,0,0,0,0,0,0,0,0,0,0,0,0,0,0,0,0,0,0,0,0,0,0,0,0,0,0,0,0,0,0,0,0,0,
0,0,0,0,0,0,0,0,0,0,0,0,0,0,0,0,0,0,0,0,0,0,0,0,0,0,0,0,0,0,0,0,0,0,0,0,0,0,0,0,0,0,0,0,0,
0,0,0,0,0,0,0,0,0,0,0,0,0,0,0,0,0,0,0,0,0,0,0,0,0,0,0,0,0,0,0,0,0,0,0,0,0,0,0,0,0,0,0,0,0,
0,0,0,0,0,0,0,0,0,0,0,0,0,0,0,0,0,0,0,0,0,0,0,0,0,0,0,0,0,0,0,0,0,0,0,0,0,0,0,0,0,0,0,0,0,
0,0,0,0,0,0,0,0,0,0,0,0,0,0,0,0,0,0,0,0,0,0,0,0,0,164,0,0,0,0,0,0,0,0,0,0,0,0,0,0,0,0,0,0,0,
0,0,0,0,0,0,0,0,0,0,0,0,0,0,0,0,0,0,0,0,0,0,0,0,0,0,0,0,0,0,0,0,0,0,0,0,0,0,0,0,0,0,0,0,0,
0,0,0,0,0,0,0,0,0,0,0,0,0,0,0,0,0,0,0,0,0,0,0,780,781,0,0,0,0,0,0,0,0,0,0,0,0,0,0,0,0,0,0,0,0,
0,0,0,0,0,0,0,0,0,0,0,0,0,0,0,0,0,0,0,0,0,0,0,0,0,0,0,0,0,0,0,0,0,0,0,0,0,0,0,0,0,0,0,0,0,
0,0,0,0,0,0,0,0,0,0,0,0,0,0,0,0,0,0,0,0,0,0,0,0,0,0,0,0,0,0,0,0,0,0,0,0,0,0,0,0,0,0,0,0,0,
0,0,0,0,0,0,0,968,982,973,0,0,0,0,0,0,0,0,1051,0,0,0,0,0,0,0,0,0,0,0,0,0,0,0,0,0,0,0,0,0,0,0,0,0,0,
0,0,0,0,0,0,0,961,983,967,0,0,0,0,0,1054,1053,1062,1059,0,0,0,0,0,0,0,0,0,0,0,0,0,0,0,0,0,0,0,0,0,0,0,0,0,0,
0,0,0,0,0,0,0,976,981,984,0,0,0,0,0,0,0,0,0,0,0,0,0,0,0,0,0,0,0,0,0,0,0,0,0,0,0,0,0,0,0,0,0,0,0,
0,0,0,0,0,0,0,0,0,0,0,0,0,0,0,0,0,0,0,0,0,0,0,0,0,0,0,0,0,0,0,0,0,0,0,0,0,0,0,0,0,0,0,0,0,
0,0,0,0,0,0,0,0,0,0,0,0,0,0,0,0,0,0,0,0,0,0,0,0,0,0,0,0,0,0,0,0,0,0,0,0,0,0,0,0,0,0,0,0,0,
0,0,0,0,0,0,0,0,0,0,0,0,0,0,0,0,0,0,0,0,0,0,0,0,0,0,0,0,0,0,0,0,0,0,0,0,0,0,0,0,0,0,0,0,0,
0,0,0,0,0,0,0,0,0,0,0,0,0,0,0,0,0,0,0,0,0,0,0,0,0,0,0,0,0,0,0,0,0,0,0,0,0,0,0,0,0,0,0,0,0,
0,0,0,0,0,0,0,0,0,0,0,0,0,0,0,0,0,0,0,0,0,0,0,0,0,0,0,0,0,0,0,0,0,0,0,0,0,0,0,0,0,0,0,0,0,
0,0,0,0,0,0,0,0,0,0,0,0,0,0,0,0,0,0,0,0,0,0,0,0,0,0,0,0,0,0,0,0,0,0,0,0,0,0,0,0,0,0,0,0,0,
0,0,0,0,0,0,0,0,0,0,0,0,0,0,0,0,0,0,0,0,0,0,0,0,0,0,0,0,0,0,0,0,0,0,0,0,0,0,0,0,0,0,0,0,0,
0,0,0,0,0,0,0,0,0,0,0,0,0,0,0,0,0,0,0,0,0,0,0,0,0,0,0,0,0,0,0,0,0,0,0,0,0,0,0,0,0,0,0,0,0,
0,0,0,0,0,0,0,0,0,0,0,0,0,0,0,0,0,0,0,0,0,0,0,0,0,0,0,0,0,0,0,0,0,0,0,0,0,0,0,0,0,0,0,0,0,
0,0,0,0,0,0,0,0,0,0,0,0,0,0,0,0,0,0,0,0,0,0,0,0,0,0,0,0,0,0,0,0,0,0,0,0,0,0,0,0,0,0,0,0,0,
0,0,0,0,0,0,0,0,0,0,0,0,0,0,0,0,0,0,0,0,0,0,0,0,0,0,0,0,0,0,0,0,0,0,0,0,0,0,0,0,0,0,0,0,0,
0,0,0,0,0,0,0,0,0,0,0,0,0,0,0,0,0,0,0,0,0,0,0,0,0,0,0,0,0,0,0,0,0,0,0,0,0,0,0,0,0,0,0,0,0,
0,0,0,0,0,0,0,0,0,0,0,0,0,0,0,0,0,0,0,0,0,0,0,0,0,0,0,0,0,0,0,0,0,0,0,0,0,0,0,0,0,0,0,0,0,
0,0,0,0,0,0,0,0,0,0,0,0,0,0,0,0,0,0,0,0,0,0,0,0,0,440,0,0,0,0,0,0,0,0,0,0,0,0,0,0,0,0,0,0,0,
0,0,0,0,0,0,0,0,0,0,0,0,0,0,0,0,0,0,0,0,0,0,0,0,0,448,0,0,0,0,0,0,0,0,0,0,0,0,0,0,0,0,0,0,0,
0,0,0,0,0,0,0,0,0,0,0,0,0,0,0,0,0,0,0,0,0,0,0,0,0,0,0,0,0,0,0,0,0,0,0,0,0,0,0,0,0,0,0,0,0,
0,0,0,0,0,0,0,0,0,0,0,0,0,0,0,0,0,0,0,0,0,0,0,0,0,0,0,0,0,0,0,0,0,0,0,0,0,0,0,0,0,0,0,0,0,
0,0,0,0,0,0,0,0,0,0,0,0,0,0,0,0,0,0,0,0,0,0,0,0,0,0,0,0,0,0,0,0,0,0,0,0,0,0,0,0,0,0,0,0,0,
0,0,0,0,0,0,0,0,0,0,0,0,0,0,0,0,0,0,0,0,0,0,0,0,0,0,0,0,0,0,0,0,0,0,0,0,0,0,0,0,0,0,0,0,0
</data>
 </layer>
 <layer id="5" name="ceil" width="45" height="45">
  <properties>
   <property name="/ceil" value=""/>
  </properties>
  <data encoding="csv">
0,0,479,479,479,0,0,0,0,0,0,0,0,0,0,0,0,0,0,0,0,0,0,0,0,0,0,0,0,0,0,0,0,0,0,0,0,0,0,0,0,0,0,0,0,
0,0,479,469,467,0,0,0,0,0,0,0,0,0,0,0,0,511,511,511,511,511,511,0,0,0,0,0,0,0,0,563,563,563,563,563,563,0,0,0,0,0,0,0,0,
0,0,479,0,0,0,0,0,0,0,0,0,0,0,0,0,0,497,498,498,498,498,511,0,0,0,0,0,0,0,0,563,573,573,573,573,563,0,0,0,0,0,0,0,0,
0,0,479,0,0,0,0,9,10,9,10,9,10,0,0,0,0,0,0,0,0,0,511,0,0,0,0,571,571,571,571,571,0,0,0,0,571,571,571,571,571,0,0,0,0,
0,0,479,0,0,0,9,34,33,34,33,34,33,10,0,0,0,0,0,0,0,0,511,0,0,0,0,579,579,579,579,579,0,0,0,0,579,579,579,579,579,0,0,0,0,
0,0,479,0,0,0,0,33,34,33,34,33,34,33,10,0,0,0,0,0,0,0,511,0,0,0,0,587,0,0,0,0,0,0,0,0,0,0,0,0,587,0,0,0,0,
0,0,479,0,0,0,9,34,33,34,33,34,33,34,33,10,0,0,0,0,0,0,511,0,0,0,0,481,0,0,0,0,0,0,0,0,0,0,0,0,483,0,0,0,0,
0,0,468,0,0,0,0,33,34,33,34,33,34,33,34,0,0,0,0,0,0,0,500,0,0,0,0,481,0,0,0,0,0,0,0,0,0,0,0,0,483,0,0,0,0,
0,0,0,0,0,0,9,34,33,34,33,34,33,34,33,10,0,0,0,0,0,0,0,0,0,0,0,0,0,0,0,579,0,0,0,0,579,0,0,0,0,0,0,0,0,
0,0,0,0,0,0,0,33,34,33,34,33,34,33,34,0,0,15,16,0,0,0,0,0,0,0,0,0,0,0,0,587,0,0,0,0,587,0,0,0,0,0,0,0,0,
0,0,0,0,0,0,9,34,33,34,33,34,33,34,33,10,0,0,0,0,0,0,0,0,0,0,0,0,0,0,0,481,0,0,0,0,483,0,0,0,0,0,0,0,0,
0,0,0,0,0,0,0,33,34,33,34,33,34,33,34,0,0,0,0,1033,1034,1035,1036,1037,0,0,0,0,0,0,0,481,0,0,0,0,483,0,0,0,0,0,0,0,0,
0,0,0,0,0,0,0,0,0,0,0,0,0,0,0,0,0,0,0,0,0,0,0,0,0,0,0,0,0,0,0,0,0,0,0,0,0,0,0,940,941,0,0,0,0,
0,0,0,0,0,0,0,0,0,0,0,0,0,0,0,0,0,0,0,0,0,0,0,0,0,0,0,0,0,0,0,0,0,0,0,0,0,0,0,0,0,0,0,0,0,
0,0,0,0,0,0,0,0,0,0,0,0,0,0,0,0,0,0,0,0,0,0,0,0,0,0,0,0,0,0,0,0,0,0,0,0,0,0,0,0,0,0,0,0,0,
0,0,0,0,0,0,0,0,0,0,0,0,0,0,0,0,0,0,0,0,0,0,0,0,0,0,0,0,0,0,0,0,0,0,0,0,0,0,0,0,0,0,0,0,0,
0,0,0,0,0,0,0,0,0,0,0,0,0,0,0,0,0,0,0,0,0,0,0,0,0,0,0,0,0,0,0,0,0,0,0,0,0,0,0,0,0,0,0,0,0,
0,0,0,0,0,0,0,0,0,0,0,0,0,0,0,0,0,0,0,0,0,0,0,0,0,156,0,0,0,0,0,0,0,0,0,0,0,0,0,0,0,0,0,0,0,
0,0,0,0,0,0,0,0,0,0,0,0,0,0,0,0,0,0,0,0,0,0,0,0,0,0,0,0,0,0,0,0,463,463,463,463,463,463,463,463,463,463,463,463,0,
0,0,0,0,0,0,0,0,0,0,0,0,0,0,0,0,0,0,0,0,0,0,0,0,0,0,0,0,0,0,0,0,463,453,450,450,450,450,450,450,450,450,450,451,0,
0,0,0,0,0,0,0,0,0,0,0,0,0,0,910,910,910,910,910,910,0,0,0,796,797,0,0,0,0,0,0,0,452,0,0,0,0,0,0,0,0,0,0,0,0,
0,0,0,0,0,0,0,0,0,0,0,0,0,0,918,918,918,918,918,918,0,0,0,0,0,0,0,0,0,0,0,0,0,0,0,0,0,0,0,0,0,0,0,0,0,
0,0,0,0,0,0,0,0,0,0,0,0,0,0,934,926,926,926,926,934,667,0,0,495,495,495,495,495,0,0,0,0,0,0,0,0,0,0,0,0,0,0,0,0,0,
0,0,0,0,0,0,0,0,0,0,0,0,0,0,942,0,0,0,0,942,0,0,0,495,485,482,482,495,0,0,0,0,0,0,0,0,0,0,0,0,0,0,0,0,0,
0,0,543,543,543,0,0,0,0,0,0,0,0,0,0,0,0,0,0,0,0,0,0,495,495,495,495,495,0,0,0,0,0,0,0,0,0,0,0,0,0,0,0,0,0,
0,0,543,533,531,0,0,0,0,0,0,0,0,0,0,0,0,0,0,0,0,0,0,481,482,487,482,483,0,0,0,0,0,0,0,0,0,0,0,0,0,0,0,0,0,
0,0,543,0,0,0,0,0,0,0,0,0,0,0,0,0,0,0,0,0,0,0,0,0,0,0,0,0,0,0,0,0,0,0,0,0,0,0,0,0,0,0,0,0,0,
0,0,543,0,0,0,0,0,0,0,0,0,0,0,527,0,0,0,0,0,0,0,0,0,0,0,0,0,0,0,0,0,0,0,0,0,0,0,0,0,0,0,0,0,0,
0,0,543,0,0,0,0,0,0,0,0,0,0,0,527,0,0,0,0,0,0,0,0,0,0,0,0,0,0,0,0,0,0,0,0,0,0,0,0,0,0,0,0,0,0,
0,0,543,0,0,0,0,0,527,527,527,527,527,527,527,0,0,0,0,0,0,0,0,0,0,0,0,0,0,0,0,0,0,0,0,0,0,0,0,0,0,0,0,0,0,
0,0,532,0,0,0,0,0,513,514,514,514,514,514,515,0,0,0,0,0,0,0,0,0,0,0,0,0,0,0,0,0,0,0,0,0,0,0,0,0,0,0,0,0,0,
0,0,0,0,0,0,0,0,0,0,0,0,0,0,0,0,0,0,0,0,0,0,0,0,0,0,0,0,0,0,0,0,0,0,0,0,0,0,0,0,0,0,0,0,0,
0,0,0,0,0,0,0,0,0,0,0,0,0,0,0,0,0,0,431,431,431,0,0,0,0,0,0,0,0,0,0,0,0,0,0,0,0,0,0,0,0,0,0,0,0,
0,0,0,0,415,415,415,415,415,367,367,367,367,367,367,0,0,0,431,421,419,0,0,0,0,0,0,0,0,0,0,0,0,0,0,0,0,0,0,0,0,0,0,0,0,
0,0,0,0,415,405,402,402,403,353,354,354,354,354,367,0,0,0,431,0,0,0,0,0,0,0,0,0,0,0,0,0,0,0,0,0,0,0,0,0,0,0,0,0,0,
0,0,0,0,415,0,0,0,0,0,0,0,0,0,367,0,0,0,431,0,0,0,0,0,0,0,0,0,0,0,0,0,0,0,0,0,0,0,0,0,0,0,0,0,0,
0,0,0,0,415,0,0,0,0,0,0,0,0,0,367,0,0,0,431,0,0,0,0,0,0,0,0,0,0,0,0,0,0,0,0,0,0,0,0,0,0,0,0,0,0,
0,0,0,0,415,0,0,0,0,0,0,0,0,0,367,0,0,0,420,0,0,0,0,0,0,0,0,0,447,447,447,447,447,0,0,0,0,0,0,0,0,0,0,0,0,
0,0,0,0,415,0,0,0,0,0,0,0,0,0,367,0,0,0,0,0,0,0,447,447,447,447,447,447,447,437,434,434,447,0,0,0,0,0,0,0,0,0,0,0,0,
0,0,0,0,383,383,383,383,383,383,383,383,383,383,383,0,0,0,0,0,0,0,447,437,434,440,434,434,435,0,0,0,447,0,0,0,0,0,0,0,0,0,0,0,0,
0,0,0,0,369,370,370,370,371,375,369,370,370,370,371,0,0,0,0,0,0,0,447,0,0,0,0,0,0,0,0,0,447,0,0,0,0,0,0,0,0,0,0,0,0,
0,0,0,0,0,0,0,0,0,0,0,0,0,0,0,0,0,0,0,0,0,0,447,0,0,0,0,0,0,0,0,0,0,0,0,0,0,0,0,0,0,0,0,0,0,
0,0,0,0,0,0,0,0,0,0,0,0,0,0,0,0,0,0,0,0,0,0,447,0,0,0,0,0,0,0,0,0,0,0,0,0,0,0,0,0,0,0,0,0,0,
0,0,0,0,0,0,0,0,0,0,0,0,0,0,0,0,0,0,0,0,0,0,447,0,0,0,0,0,0,0,0,0,0,0,0,0,0,0,0,0,0,0,0,0,0,
0,0,0,0,0,0,0,0,0,0,0,0,0,0,0,0,0,0,0,0,0,0,447,0,0,0,0,0,0,0,0,0,0,0,0,0,0,0,0,0,0,0,0,0,0
</data>
 </layer>
</map>
